/* XPM */
static char * blue_xpm[] = {
"32 32 15 1",
" 	c #007AFF",
".	c #017AFF",
"+	c #027AFF",
"@	c #037AFF",
"#	c #047AFF",
"$	c #057AFF",
"%	c #067AFF",
"&	c #077AFF",
"*	c #087AFF",
"=	c #0A7AFF",
"-	c #0B7AFF",
";	c #0D7BFF",
">	c #0B7BFF",
",	c #0E7BFF",
"'	c #0F7BFE",
"                               .",
"                                ",
"                                ",
"                                ",
"                                ",
"                                ",
"                                ",
"                                ",
"                                ",
"                                ",
"                                ",
"                                ",
"                                ",
"                                ",
"                                ",
"                                ",
"                                ",
"                                ",
"                                ",
"                                ",
"                                ",
"                                ",
"                                ",
"                                ",
"                              ..",
"                             ..+",
"                            ..+@",
"                           .+@#$",
"                          .+@$%&",
"                         .+@%*==",
"                        .+@%*-;;",
"                       ..@$*>,''"};
