/* XPM */
static char * yellow_xpm[] = {
"32 32 7 1",
" 	c #FFFF00",
".	c #FEFF00",
"+	c #FDFF00",
"@	c #FCFF00",
"#	c #FBFF00",
"$	c #FAFF00",
"%	c #F8FF00",
"                         ..+@#$%",
"                           ..+@#",
"                             ..+",
"                               .",
"                                ",
"                                ",
"                                ",
"                                ",
"                                ",
"                                ",
"                                ",
"                                ",
"                                ",
"                                ",
"                                ",
"                                ",
"                                ",
"                                ",
"                                ",
"                                ",
"                                ",
"                                ",
"                                ",
"                                ",
"                                ",
"                                ",
"                                ",
"                                ",
"                                ",
"                                ",
"                                ",
"                                "};
