/* XPM */
static char *result[] = {
/* columns rows colors chars-per-pixel */
"64 64 24 1 ",
"  c gray10",
". c #393C2C",
"X c #4A4C3B",
"o c #322947",
"O c #3A3865",
"+ c #473B78",
"@ c #4B5070",
"# c #93986C",
"$ c #A3A97B",
"% c #4B5BAB",
"& c #AAB083",
"* c #BCBF95",
"= c #D4D7B9",
"- c #D7DABB",
"; c #D8DBBA",
": c #DBDDBC",
"> c #83A9D0",
", c #93BAE1",
"< c #BCD6F0",
"1 c #EBEDD3",
"2 c #ECEED3",
"3 c #D5E5F5",
"4 c #FFFFEB",
"5 c #E5F2FE",
/* pixels */
"1111$;;;;;1111111111=1111111111111111111=111111111111;;;;$1=1111",
"1111$;;;;11111111111=1111111111111111111=1111111111111;;;$1=1111",
"11=1$;;;;11111111111=1111111111111111111=11111111111111;;$1=1111",
"1==1$;;;;11111111111=1111111111111111111=11111111111111;;$1=1111",
"1==1$;;;;11111111111=1111111111111111111=11111111111111;;$1=1111",
"1==1$;;;111111111111=1111111111111111111=11111111111111;;$1=1111",
"1==1$;;;111111111111=1111111111111111111=11111111111111;;$1=1111",
"11=1$;;;111111111111=1111111111111111111=11111111111111;;$1=1111",
"11=1$;;;111111111111=1111111111111111111=11111111111111;;$1=1111",
"1111$;;;111111111111=1111111111111111111=1111111111111;;;$1=1111",
"1111$;;;111111111111=1111111111111111111=111111111111;;;;$1=1111",
"1111$;;;;11111111111=1111111111111111111=11111111111;;;;;$11=111",
"11=1$;;;;;1111111111=1111111111111111111=1111111111;;;;;;$1==111",
"################################################################",
"################################################################",
"################################################################",
"################################################################",
"1111$;1;   oooo++++++++++++++++++++++++++++++ooooo    1;1$111111",
"1111$;;;  oooo+++++%%%%%%%%%%%%%%%%%%%%%%+++++oooooo  ;;1$1=1111",
"1111$;;; ooo++++++%%%%%%%%%1%%1%%%%%%%%%%%%%%+1++++oo ;;1$1=1111",
"1=11$;;;ooo+++++%%%%%>>>>>1>>1>>>>>>>>>>>%%%%1%%%+++oo;;;$1=1111",
"1=11$;;1oo++++%%%%>>>>>>>1>>1>>>>>>>>>>>>>>>1%%%%%%++o;;;$1=1111",
"1=11$1;1o++++%%%>>>>>>>>>>>1,,>>>>>>>>>>>>>1>%1%%%%+++;;;$1=1111",
"1=11$1;1++++%%%>>>>>>>>,,,1,,,,,>>>>>>>>>>1>>1>%%%%%++;;;$1=1111",
"1=11$1;1+++%%%>>>>>>,,,,<1<33<<,,,>>>>>>>1>>1>>>>%%%++;1;$1=1111",
"=111$1;1++%%%>>>>>>,<1<<133443<<<<,>>>>>1>>1>>>>>%%%++;1;$1=1111",
"=111$1;;+%%%>>>>>,,<1<<1<344443<<<<,,>>1>>1>>>>>>>%%%+;;;$1=1111",
"=111$1;;+%%>>>>>,,<1<<1<34455553<<<,,>1>>1>>>>>>>>%%%+1;;$1=1111",
"==1*$1;;+%%>>>>1<<1<<1<34555553<<<<,,1>>1>>>>>>>>1%%1+1;1$1==111",
"1=*1$11;+%%>>>1,<1<<13<<355553<<<<<,1>>1>>>>>>>>1>%1%+1;1$*==111",
"**11$11;+%%>>1,<1<<1443<<35333<<<<<1>>1>>>>>>>>1>>1%%+;;1$1*****",
"1=11$1;;+%%>>,,<<344443<<<<<<<<<<<1,>>>>>>>>>>1>>1>%%+;;1$1==111",
"1111$1;;+%%>>,,<34445553<<<<<<<<<1<,>>>>>>>>>1>>1>>%%+;;1$1==111",
"1111$;;1+%%>>,,<<3444553<<<<<<<<1<,>>>>>>>>>1>>1>>>%%+;;1$1=1111",
"1111$;11+%%>1,,<<<34433<<<<<<<<1<,>>>>>>>>>1>>1>>>>%%+;;1$1=1111",
"1111$;;1+%%1>>>,<<3<3<<<<<<<<<1,,>>>>>>>>>1>>1>>>>>%%+1;1$1=1111",
"1111$;;1+%1>>>>,<<<<<<<<<<<<<1,>>>>>>>>>>1>>1>>>>>%%%+1;1$1=1111",
"1=11$;;1+%%%>>>>,,,<<<<<<<<<1,>1>>>>>>>>1>>1>>>>>>%%++1;1$111111",
"1=11$;;1++%%>>>>>>>,,,,,,,,1,>1>>>>>>>>1>>1>>>>>>%%%+o1;1$11=111",
"1=11$;;1+++%%>>>>>>>,,,,>>1>>1>>>>>>>>1>>1>>>>>>>%%++o1;1$11=111",
"1=11$;;;o++%%%>>>>>>>>>>>>>>>>>>>>>>>>>>1>>>>>>>%%%++o;;;$11=111",
"11=1$;;;oo++%%%>>>>@@>>>>>>>>>>>>>>>>>>1>>>>>>>%%+++oo;;;$11=111",
"11=1$1;; ooo++%%%%O%O%%>>>>>>@>>>>>>>>1>>>>>>%%%++oo  ;;;$11=111",
"11=1$11;   oo++%%%OO%O%%%%%%O%O%%%%%%%%%%%%%%%%++ooo  ;;;$11=111",
"11=1$;;;   oo+++++++++++++++++++++++++++++++++++ooo   ;;;$11=111",
"1==1#========##==========##================#===========###11=111",
"1=11######################################################11==11",
"1=1*######################################################*1==11",
"***1..................................................XXXX2*****",
"1=11..............................................XXXX....111=11",
"1=11$;11111111111111=1111111111111111111=11111111121111;;$111=11",
"1=11$;11111111111111=1111111111111111111=11111111122111;;$111=11",
"1=11$;;1111111111111=1111111111111111111=1111111111211;;;$111=11",
"1=11$;;1111111111111=1111111111111111111=1111111111122;;;$11==11",
"1=11$;;1111111111111=1111111111111111111=1111111111112;;;$11=111",
"1111$;;;111111111111=1111111111111111111=1111111111121;;;$11=111",
"1111$;;;111111111111=1111111111111111111=1111111222211;;;$11=111",
"1111$;;;111111111111=1111111111111111111=1222222222222:::&22-211",
"1111$;;;;11111111111=1111111111111111112-2221111111111;;;$1==111",
"1111$;;;;11111111111=1111111111111111111=1111111111111;;;$1==111",
"1111$;;;;11111111111=1111111111111111111=1111111111111;;;$1==11=",
"1111$;;;;11111111111=1111111111111111111=111111111111;;;;$1=111=",
"1111$;;;;;1111111111=1111111111111111111=111111111111;;;;$1=111=",
"1111$;;;;;1111111111=1111111111111111111=111111111111;;;;$1=11=="
};
