/* XPM */
static char *result[] = {
/* columns rows colors chars-per-pixel */
"64 64 34 1 ",
"  c gray10",
". c #393C2C",
"X c #4A4C3B",
"o c #322947",
"O c #3A3865",
"+ c #473B78",
"@ c #3A4551",
"# c #595952",
"$ c #6F715E",
"% c #4B5070",
"& c #6A6471",
"* c #93986C",
"= c #A3A97B",
"- c #BBDC46",
"; c #4B5BAB",
": c #5C73B7",
"> c #7B87B7",
", c #708EC3",
"< c #AAB083",
"1 c #BCBF95",
"2 c #D4D7B9",
"3 c #D7DABB",
"4 c #D8DBBA",
"5 c #DBDDBC",
"6 c #83A9D0",
"7 c #93BAE1",
"8 c #BCD6F0",
"9 c #EBEDD3",
"0 c #ECEED3",
"q c #DAE5E2",
"w c #D5E5F5",
"e c #F9F9E3",
"r c #FFFFEB",
"t c #E5F2FE",
/* pixels */
"9999=4444499999999992999999999999999999929999999999994444=929999",
"9999=4444999999999992999999999999999999929999999999999444=929999",
"9929=4444999999999992999999999999999999929999999999999944=929999",
"9229=4444999999999992999999999999999999929999999999999944=929999",
"9229=4444999999999992999999999999999999929999999999999944=929999",
"9229=4449999999999992999999999999999999929999999999999944=929999",
"9229=4449999999999992999999999999999999929999999999999944=929999",
"9929=4449999999999992999999999999999999929999999999999944=929999",
"9929=4449999999999992999999999999999999929999999999999944=929999",
"9999=4449999999999992999999999999999999929999999999999444=929999",
"9999=4449999999999992999999999999999999929999999999994444=929999",
"9999=4444999999999992999999999999999999929999999999944444=992999",
"9929=4444499999999992999999999999999999929999999999444444=922999",
"****************************************************************",
"****************************************************************",
"****************************************************************",
"****************************************************************",
"9999=494   oooo++++++++++++++++++++++++++++++ooooo    949=999999",
"9999=444  oooo+++++;;;;;;;;;;;;;;;;;;;;;;+++++oooooo  449=929999",
"9999=444 ooo++++++;;;;;;;;;9;;9;;;;;;;;;;;;;;+9++++oo 449=929999",
"9299=444ooo+++++;;;;;66666966966666666666;;;;9;;;+++oo444=929999",
"9299=449oo++++;;;;666666696696666666666666669;;;;;;++o444=929999",
"9299=949o++++;;;66666666666977666666666666696;9;;;;+++444=929999",
"9299=949++++;;;66666666777977777666666666696696;;;;;++444=929999",
"9299=949+++;;;6666667777898ww88777666666696696666;;;++494=929999",
"2999=949++;;;666666789889wwrrw8888766666966966666;;;++494=929999",
"2999=944+;;;6666677898898wrrrrw8888776696696666666;;;+444=929999",
"2999=944+;;6666677898898wrrttttw888776966966666666;;;+944=929999",
"2291=944+;;666698898898wrtttttw8888779669666666669;;9+949=922999",
"9219=994+;;6669789889w88wttttw88888796696666666696;9;+949=122999",
"1199=994+;;669789889rrw88wtwww8888896%&666666669669;;+449=911111",
"9299=944+;;667788wrrrrw8888888888897%:%66666669%696;;+449=922999",
"9999=944+;;66778wrrrtttw888888888987%%:%666669%:&66;;+449=922999",
"9999=449+;;667788wrrrttw888888889876%6%:%6669%:$%66;;+449=929999",
"9999=499+;;6977888wrrww888888889876666%:%669%:&6%66;;+449=929999",
"9999=449+;;9666788w8w888888888977666666%--&%%>%6666;;+949=929999",
"9999=449+;9666678888888888888976666666%::>::&%6666;;;+949=929999",
"9299=449+;;;6666777888888888976966666%:@eq@e,%6666;;++949=999999",
"9299=449++;;666666677777777976966666%:q#qq#qq,%66;;;+o949=992999",
"9299=449+++;;66666667777669669666666%:eqqeqqq,%66;;++o949=992999",
"9299=444o++;;;6666666666666666666666%q@q#@q@qq%6;;;++o444=992999",
"9929=444oo++;;;666666666666666666666%qq#qq@qq%6;;+++oo444=992999",
"9929=944 ooo++;;;;;;;;;66666666666666%9qqqqq%;;;++oo  444=992999",
"9929=994   oo++;;;;;;;;;;;;;;;;;;;;;;;OOOOOOO;;++ooo  444=992999",
"9929=444   oo+++++++++++++++++++++++++++++++++++ooo   444=992999",
"9229*22222222**2222222222**2222222222222222*22222222222***992999",
"9299******************************************************992299",
"9291******************************************************192299",
"1119..................................................XXXX011111",
"9299..............................................XXXX....999299",
"9299=4999999999999992999999999999999999929999999990999944=999299",
"9299=4999999999999992999999999999999999929999999990099944=999299",
"9299=4499999999999992999999999999999999929999999999099444=999299",
"9299=4499999999999992999999999999999999929999999999900444=992299",
"9299=4499999999999992999999999999999999929999999999990444=992999",
"9999=4449999999999992999999999999999999929999999999909444=992999",
"9999=4449999999999992999999999999999999929999999000099444=992999",
"9999=4449999999999992999999999999999999929000000000000555<003099",
"9999=4444999999999992999999999999999999030009999999999444=922999",
"9999=4444999999999992999999999999999999929999999999999444=922999",
"9999=4444999999999992999999999999999999929999999999999444=922992",
"9999=4444999999999992999999999999999999929999999999994444=929992",
"9999=4444499999999992999999999999999999929999999999994444=929992",
"9999=4444499999999992999999999999999999929999999999994444=929922"
};
