/* XPM */
static char *result[] = {
/* columns rows colors chars-per-pixel */
"64 64 23 1 ",
"  c gray10",
". c #393C2C",
"X c #352F3E",
"o c #4A4C3B",
"O c #322947",
"+ c #473B78",
"@ c #93986C",
"# c #A3A97B",
"$ c #4B5BAB",
"% c #AAB083",
"& c #BCBF95",
"* c #D4D7B9",
"= c #D7DABB",
"- c #D8DBBA",
"; c #DBDDBC",
": c #83A9D0",
"> c #93BAE1",
", c #BCD6F0",
"< c #EBEDD3",
"1 c #ECEED3",
"2 c #D5E5F5",
"3 c #FFFFEB",
"4 c #E5F2FE",
/* pixels */
"<<<<#-----<<<<<<<<<<*<<<<<<<<<<<<<<<<<<<*<<<<<<<<<<<<----#<*<<<<",
"<<<<#----<<<<<<<<<<<*<<<<<<<<<<<<<<<<<<<*<<<<<<<<<<<<<---#<*<<<<",
"<<*<#----<<<<<<<<<<<*<<<<<<<<<<<<<<<<<<<*<<<<<<<<<<<<<<--#<*<<<<",
"<**<#----<<<<<<<<<<<*<<<<<<<<<<<<<<<<<<<*<<<<<<<<<<<<<<--#<*<<<<",
"<**<#----<<<<<<<<<<<*<<<<<<<<<<<<<<<<<<<*<<<<<<<<<<<<<<--#<*<<<<",
"<**<#---<<<<<<<<<<<<*<<<<<<<<<<<<<<<<<<<*<<<<<<<<<<<<<<--#<*<<<<",
"<**<#---<<<<<<<<<<<<*<<<<<<<<<<<<<<<<<<<*<<<<<<<<<<<<<<--#<*<<<<",
"<<*<#---<<<<<<<<<<<<*<<<<<<<<<<<<<<<<<<<*<<<<<<<<<<<<<<--#<*<<<<",
"<<*<#---<<<<<<<<<<<<*<<<<<<<<<<<<<<<<<<<*<<<<<<<<<<<<<<--#<*<<<<",
"<<<<#---<<<<<<<<<<<<*<<<<<<<<<<<<<<<<<<<*<<<<<<<<<<<<<---#<*<<<<",
"<<<<#---<<<<<<<<<<<<*<<<<<<<<<<<<<<<<<<<*<<<<<<<<<<<<----#<*<<<<",
"<<<<#----<<<<<<<<<<<*<<<<<<<<<<<<<<<<<<<*<<<<<<<<<<<-----#<<*<<<",
"<<*<#-----<<<<<<<<<<*<<<<<<<<<<<<<<<<<<<*<<<<<<<<<<------#<**<<<",
"@@@@@@@@@@@@@@@@@@@@@@@@@@@@@@@@@@@@@@@@@@@@@@@@@@@@@@@@@@@@@@@@",
"@@@@@@@@@@@@@@@@@@@@@@@@@@@@@@@@@@@@@@@@@@@@@@@@@@@@@@@@@@@@@@@@",
"@@@@@@@@@@@@@@@@@@@@@@@@@@@@@@@@@@@@@@@@@@@@@@@@@@@@@@@@@@@@@@@@",
"@@@@@@@@@@@@@@@@@@@@@@@@@@@@@@@@@@@@@@@@@@@@@@@@@@@@@@@@@@@@@@@@",
"<<<<#-<-   OOOO++++++++++++++++++++++++++++++OOOOO    <-<#<<<<<<",
"<<<<#---  OOOO+++++$$$$$$$$$$$$$$$$$$$$$$+++++OOOOOO  --<#<*<<<<",
"<<<<#--- OOO++++++$$$$$$$$$<$$<$$$$$$$$$$$$$$+<++++OO --<#<*<<<<",
"<*<<#---OOO+++++$$$$$:::::<::<:::::::::::$$$$<$$$+++OO---#<*<<<<",
"<*<<#--<OO++++$$$$:::::::<::<:::::::::::::::<$$$$$$++O---#<*<<<<",
"<*<<#<-<O++++$$$:::::::::::<>>:::::::::::::<:$<$$$$+++---#<*<<<<",
"<*<<#<-<++++$$$::::::::>>><>>>>>::::::::::<::<:$$$$$++---#<*<<<<",
"<*<<#<-<+++$$$::::::>>>>,<,22,,>>>:::::::<::<::::$$$++-<-#<*<<<<",
"*<<<#<-<++$$$::::::>,<,,<22332,,,,>:::::<::<:::::$$$++-<-#<*<<<<",
"*<<<#<--+$$$:::::>>,<,,<,233332,,,,>>::<::<:::::::$$$+---#<*<<<<",
"*<<<#<--+$$:::::>>,<,,<,23344442,,,>>:<::<::::::::$$$+<--#<*<<<<",
"**<&#<--+$$::::<,,<,,<,23444442,,,,>><::<::::::::<$$<+<-<#<**<<<",
"<*&<#<<-+$$:::<>,<,,<2,,244442,,,,,><::<::::::::<:$<$+<-<#&**<<<",
"&&<<#<<-+$$::<>,<,,<332,,24222,,,,,<::<::::::::<::<$$+--<#<&&&&&",
"<*<<#<--+$$::>>,,233332,,,,,,,,,,,<>::::::::::<::<:$$+--<#<**<<<",
"<<<<#<--+$$::>>,23334442,,,,,,,,,<,>:::::::::<::<::$$+--<#<**<<<",
"<<<<#--<+$$::>>,,2333442,,,,,,,,<,>:::::::::<::<:::$$+--<#<*<<<<",
"<<<<#-<<+$$:<>>,,,23322,,,,,,,,<,>:::::::::<::<::::$$+--<#<*<<<<",
"<<<<#--<+$$<:::>,,2,2,,,,,,,,,<>>:::::::::<::<:::::$$+<-<#<*<<<<",
"<<<<#--<+$<::::>,,,,,,,,,,,,,<>::::::::::<::<:::::$$$+<-<#<*<<<<",
"<*<<#--<+$$$::::>>>,,,,,,,,,<>:<::::::::<::<::::::$$++<-<#<<<<<<",
"<*<<#--<++$$:::::::>>>>>>>><>:<::::::::<::<::::::$$$+O<-<#<<*<<<",
"<*<<#--<+++$$:::::::>>>>::<::<::::::::<::<:::::::$$++O<-<#<<*<<<",
"<*<<#---O++$$$::::::::::::::::::::::::::<:::::::$$$++O---#<<*<<<",
"<<*<#---OO++$$$::::::::::::::::::::::::<:::::::$$+++OO---#<<*<<<",
"<<*<#<-- OOO++$$$$$$$$$:::::::::::::::<::::::$$$++OO  ---#<<*<<<",
"<<*<#<<-   OO++$$$$$$$$$$$$$$$$$$$$$$$$$$$$$$$$++OOO  ---#<<*<<<",
"<<*<#---   OO+++++++++++++++++++++++++++++++++++OOO   ---#<<*<<<",
"<**<@********@@**********@@****************@***********@@@<<*<<<",
"<*<<@@@@@@@@@@@@@@@@@@@@@@@@@@@@@@@@@@@@@@@@@@@@@@@@@@@@@@<<**<<",
"<*<&@@@@@@@@@@@@@@@@@@@@@@@@@@@@@@@@@@@@@@@@@@@@@@@@@@@@@@&<**<<",
"&&&<..................................................oooo1&&&&&",
"<*<<............X.................................oooo....<<<*<<",
"<*<<#-<<<<<<<<<<<<<<*<<<<<<<<<<<<<<<<<<<*<<<<<<<<<1<<<<--#<<<*<<",
"<*<<#-<<<<<<<<<<<<<<*<<<<<<<<<<<<<<<<<<<*<<<<<<<<<11<<<--#<<<*<<",
"<*<<#--<<<<<<<<<<<<<*<<<<<<<<<<<<<<<<<<<*<<<<<<<<<<1<<---#<<<*<<",
"<*<<#--<<<<<<<<<<<<<*<<<<<<<<<<<<<<<<<<<*<<<<<<<<<<<11---#<<**<<",
"<*<<#--<<<<<<<<<<<<<*<<<<<<<<<<<<<<<<<<<*<<<<<<<<<<<<1---#<<*<<<",
"<<<<#---<<<<<<<<<<<<*<<<<<<<<<<<<<<<<<<<*<<<<<<<<<<<1<---#<<*<<<",
"<<<<#---<<<<<<<<<<<<*<<<<<<<<<<<<<<<<<<<*<<<<<<<1111<<---#<<*<<<",
"<<<<#---<<<<<<<<<<<<*<<<<<<<<<<<<<<<<<<<*<111111111111;;;%11=1<<",
"<<<<#----<<<<<<<<<<<*<<<<<<<<<<<<<<<<<<1=111<<<<<<<<<<---#<**<<<",
"<<<<#----<<<<<<<<<<<*<<<<<<<<<<<<<<<<<<<*<<<<<<<<<<<<<---#<**<<<",
"<<<<#----<<<<<<<<<<<*<<<<<<<<<<<<<<<<<<<*<<<<<<<<<<<<<---#<**<<*",
"<<<<#----<<<<<<<<<<<*<<<<<<<<<<<<<<<<<<<*<<<<<<<<<<<<----#<*<<<*",
"<<<<#-----<<<<<<<<<<*<<<<<<<<<<<<<<<<<<<*<<<<<<<<<<<<----#<*<<<*",
"<<<<#-----<<<<<<<<<<*<<<<<<<<<<<<<<<<<<<*<<<<<<<<<<<<----#<*<<**"
};
