/* XPM */
static char *result[] = {
/* columns rows colors chars-per-pixel */
"64 64 38 1 ",
"  c gray10",
". c #393C2C",
"X c #4A4C3B",
"o c #322947",
"O c #3A3865",
"+ c #473B78",
"@ c #3A4551",
"# c #595952",
"$ c #6F715E",
"% c #4B5070",
"& c #5C5D7A",
"* c #6A6471",
"= c #93986C",
"- c #A3A97B",
"; c #BBDC46",
": c #4B5BAB",
"> c #5C73B7",
", c #6178BC",
"< c #7B87B7",
"1 c #708EC3",
"2 c #AAB083",
"3 c #BCBF95",
"4 c #D4D7B9",
"5 c #D7DABB",
"6 c #D8DBBA",
"7 c #DBDDBC",
"8 c #83A9D0",
"9 c #B2B9C5",
"0 c #93BAE1",
"q c #BCD6F0",
"w c #C9CED7",
"e c #EBEDD3",
"r c #ECEED3",
"t c #DAE5E2",
"y c #D5E5F5",
"u c #F9F9E3",
"i c #FFFFEB",
"p c #E5F2FE",
/* pixels */
"eeee-66666eeeeeeeeee4eeeeeeeeeeeeeeeeeee4eeeeeeeeeeee6666-e4eeee",
"eeee-6666eeeeeeeeeee4eeeeeeeeeeeeeeeeeee4eeeeeeeeeeeee666-e4eeee",
"ee4e-6666eeeeeeeeeee4eeeeeeeeeeeeeeeeeee4eeeeeeeeeeeeee66-e4eeee",
"e44e-6666eeeeeeeeeee4eeeeeeeeeeeeeeeeeee4eeeeeeeeeeeeee66-e4eeee",
"e44e-6666eeeeeeeeeee4eeeeeeeeeeeeeeeeeee4eeeeeeeeeeeeee66-e4eeee",
"e44e-666eeeeeeeeeeee4eeeeeeeeeeeeeeeeeee4eeeeeeeeeeeeee66-e4eeee",
"e44e-666eeeeeeeeeeee4eeeeeeeeeeeeeeeeeee4eeeeeeeeeeeeee66-e4eeee",
"ee4e-666eeeeeeeeeeee4eeeeeeeeeeeeeeeeeee4eeeeeeeeeeeeee66-e4eeee",
"ee4e-666eeeeeeeeeeee4eeeeeeeeeeeeeeeeeee4eeeeeeeeeeeeee66-e4eeee",
"eeee-666eeeeeeeeeeee4eeeeeeeeeeeeeeeeeee4eeeeeeeeeeeee666-e4eeee",
"eeee-666eeeeeeeeeeee4eeeeeeeeeeeeeeeeeee4eeeeeeeeeeee6666-e4eeee",
"eeee-6666eeeeeeeeeee4eeeeeeeeeeeeeeeeeee4eeeeeeeeeee66666-ee4eee",
"ee4e-66666eeeeeeeeee4eeeeeeeeeeeeeeeeeee4eeeeeeeeee666666-e44eee",
"================================================================",
"================================================================",
"================================================================",
"================================================================",
"eeee-6e6   oooo++++++++++++++++++++++++++++++ooooo    e6e-eeeeee",
"eeee-666  oooo+++++::::::::::::::::::::::+++++oooooo  66e-e4eeee",
"eeee-666 ooo++++++:::::::::e::e::::::::::::::+e++++oo 66e-e4eeee",
"e4ee-666ooo+++++:::::88888e88e88888888888::::e:::+++oo666-e4eeee",
"e4ee-66eoo++++::::8888888e88e888888888888888e::::::++o666-e4eeee",
"e4ee-e6eo++++:::88888888888e008888888888888e8:e::::+++666-e4eeee",
"e4ee-e6e++++:::88888888000e000008888888888e88e8:::::++666-e4eeee",
"e4ee-e6e+++:::8888880000qeqyyqq0008888888e88e8888:::++6e6-e4eeee",
"4eee-e6e++:::8888880qeqqeyyiiyqqqq088888e88e88888:::++6e6-e4eeee",
"4eee-e66+:::8888800qeqqeqyiiiiyqqqq0088e88e8888888:::+666-e4eeee",
"4eee-e66+::8888800qeqqeqyiippppyqqq008e88e88888888:::+e66-e4eeee",
"44e3-e66+::8888eqqeqqeqyipppppyqqqq00e88e88888888e::e+e6e-e44eee",
"e43e-ee6+::888e0qeqqeyqqyppppyqqqqq0e88e88888888e8:e:+e6e-344eee",
"33ee-ee6+::88e0qeqqeiiyqqypyyyqqqqqe88e88888888e88e::+66e-e33333",
"e4ee-e66+::8800qqyiiiiyqqqqqqqqqq&*08888888888e88e8::+66e-e44eee",
"eeee-e66+::8800qyiiipppyqqqqqqqq&<&08888888%8e88e88::+66e-e44eee",
"eeee-66e+::8800qqyiiippyqqqqqqqq*&,%888888%>*88e888::+66e-e4eeee",
"eeee-6ee+::8e00qqqyiiyyqqqqqqqqe&0%>%8888%>$%8e8888::+66e-e4eeee",
"eeee-66e+::e8880qqyqyqqqqqqqqqe008%>%888%>*8%e88888::+e6e-e4eeee",
"eeee-66e+:e88880qqqqqqqqqqqqqe08888%;;%%%<%8e88888:::+e6e-e4eeee",
"e4ee-66e+:::8888000qqqqqqqqqe08e88%>>>>>*%8e888888::++e6e-eeeeee",
"e4ee-66e++::888888800000000e08e88%>@tt@u1%e888888:::+oe6e-ee4eee",
"e4ee-66e+++::8888888000088e88e88%>t@tt#tt9%888888::++oe6e-ee4eee",
"e4ee-666o++:::888888888888888888%>ttttttu1%88888:::++o666-ee4eee",
"ee4e-666oo++:::88888888888888888%t@t@@t#tt%8888::+++oo666-ee4eee",
"ee4e-e66 ooo++:::::::::888888888%tt@tt#tt%888:::++oo  666-ee4eee",
"ee4e-ee6   oo++::::::::::::::::::O:wwwwwO::::::++ooo  666-ee4eee",
"ee4e-666   oo+++++++++++++++++++++++++++++++++++ooo   666-ee4eee",
"e44e=44444444==4444444444==4444444444444444=44444444444===ee4eee",
"e4ee======================================================ee44ee",
"e4e3======================================================3e44ee",
"333e..................................................XXXXr33333",
"e4ee..............................................XXXX....eee4ee",
"e4ee-6eeeeeeeeeeeeee4eeeeeeeeeeeeeeeeeee4eeeeeeeeereeee66-eee4ee",
"e4ee-6eeeeeeeeeeeeee4eeeeeeeeeeeeeeeeeee4eeeeeeeeerreee66-eee4ee",
"e4ee-66eeeeeeeeeeeee4eeeeeeeeeeeeeeeeeee4eeeeeeeeeeree666-eee4ee",
"e4ee-66eeeeeeeeeeeee4eeeeeeeeeeeeeeeeeee4eeeeeeeeeeerr666-ee44ee",
"e4ee-66eeeeeeeeeeeee4eeeeeeeeeeeeeeeeeee4eeeeeeeeeeeer666-ee4eee",
"eeee-666eeeeeeeeeeee4eeeeeeeeeeeeeeeeeee4eeeeeeeeeeere666-ee4eee",
"eeee-666eeeeeeeeeeee4eeeeeeeeeeeeeeeeeee4eeeeeeerrrree666-ee4eee",
"eeee-666eeeeeeeeeeee4eeeeeeeeeeeeeeeeeee4errrrrrrrrrrr7772rr5ree",
"eeee-6666eeeeeeeeeee4eeeeeeeeeeeeeeeeeer5rrreeeeeeeeee666-e44eee",
"eeee-6666eeeeeeeeeee4eeeeeeeeeeeeeeeeeee4eeeeeeeeeeeee666-e44eee",
"eeee-6666eeeeeeeeeee4eeeeeeeeeeeeeeeeeee4eeeeeeeeeeeee666-e44ee4",
"eeee-6666eeeeeeeeeee4eeeeeeeeeeeeeeeeeee4eeeeeeeeeeee6666-e4eee4",
"eeee-66666eeeeeeeeee4eeeeeeeeeeeeeeeeeee4eeeeeeeeeeee6666-e4eee4",
"eeee-66666eeeeeeeeee4eeeeeeeeeeeeeeeeeee4eeeeeeeeeeee6666-e4ee44"
};
