/* XPM */
static char *result[] = {
/* columns rows colors chars-per-pixel */
"64 64 22 1 ",
"  c gray10",
". c #393C2C",
"X c #4A4C3B",
"o c #322947",
"O c #473B78",
"+ c #93986C",
"@ c #A3A97B",
"# c #4B5BAB",
"$ c #AAB083",
"% c #BCBF95",
"& c #D4D7B9",
"* c #D7DABB",
"= c #D8DBBA",
"- c #DBDDBC",
"; c #83A9D0",
": c #93BAE1",
"> c #BCD6F0",
", c #EBEDD3",
"< c #ECEED3",
"1 c #D5E5F5",
"2 c #FFFFEB",
"3 c #E5F2FE",
/* pixels */
",,,,@=====,,,,,,,,,,&,,,,,,,,,,,,,,,,,,,&,,,,,,,,,,,,====@,&,,,,",
",,,,@====,,,,,,,,,,,&,,,,,,,,,,,,,,,,,,,&,,,,,,,,,,,,,===@,&,,,,",
",,&,@====,,,,,,,,,,,&,,,,,,,,,,,,,,,,,,,&,,,,,,,,,,,,,,==@,&,,,,",
",&&,@====,,,,,,,,,,,&,,,,,,,,,,,,,,,,,,,&,,,,,,,,,,,,,,==@,&,,,,",
",&&,@====,,,,,,,,,,,&,,,,,,,,,,,,,,,,,,,&,,,,,,,,,,,,,,==@,&,,,,",
",&&,@===,,,,,,,,,,,,&,,,,,,,,,,,,,,,,,,,&,,,,,,,,,,,,,,==@,&,,,,",
",&&,@===,,,,,,,,,,,,&,,,,,,,,,,,,,,,,,,,&,,,,,,,,,,,,,,==@,&,,,,",
",,&,@===,,,,,,,,,,,,&,,,,,,,,,,,,,,,,,,,&,,,,,,,,,,,,,,==@,&,,,,",
",,&,@===,,,,,,,,,,,,&,,,,,,,,,,,,,,,,,,,&,,,,,,,,,,,,,,==@,&,,,,",
",,,,@===,,,,,,,,,,,,&,,,,,,,,,,,,,,,,,,,&,,,,,,,,,,,,,===@,&,,,,",
",,,,@===,,,,,,,,,,,,&,,,,,,,,,,,,,,,,,,,&,,,,,,,,,,,,====@,&,,,,",
",,,,@====,,,,,,,,,,,&,,,,,,,,,,,,,,,,,,,&,,,,,,,,,,,=====@,,&,,,",
",,&,@=====,,,,,,,,,,&,,,,,,,,,,,,,,,,,,,&,,,,,,,,,,======@,&&,,,",
"++++++++++++++++++++++++++++++++++++++++++++++++++++++++++++++++",
"++++++++++++++++++++++++++++++++++++++++++++++++++++++++++++++++",
"++++++++++++++++++++++++++++++++++++++++++++++++++++++++++++++++",
"++++++++++++++++++++++++++++++++++++++++++++++++++++++++++++++++",
",,,,@=,=   ooooOOOOOOOOOOOOOOOOOOOOOOOOOOOOOOooooo    ,=,@,,,,,,",
",,,,@===  ooooOOOOO######################OOOOOoooooo  ==,@,&,,,,",
",,,,@=== oooOOOOOO#########,##,##############O,OOOOoo ==,@,&,,,,",
",&,,@===oooOOOOO#####;;;;;,;;,;;;;;;;;;;;####,###OOOoo===@,&,,,,",
",&,,@==,ooOOOO####;;;;;;;,;;,;;;;;;;;;;;;;;;,######OOo===@,&,,,,",
",&,,@,=,oOOOO###;;;;;;;;;;;,::;;;;;;;;;;;;;,;#,####OOO===@,&,,,,",
",&,,@,=,OOOO###;;;;;;;;:::,:::::;;;;;;;;;;,;;,;#####OO===@,&,,,,",
",&,,@,=,OOO###;;;;;;::::>,>11>>:::;;;;;;;,;;,;;;;###OO=,=@,&,,,,",
"&,,,@,=,OO###;;;;;;:>,>>,11221>>>>:;;;;;,;;,;;;;;###OO=,=@,&,,,,",
"&,,,@,==O###;;;;;::>,>>,>122221>>>>::;;,;;,;;;;;;;###O===@,&,,,,",
"&,,,@,==O##;;;;;::>,>>,>12233331>>>::;,;;,;;;;;;;;###O,==@,&,,,,",
"&&,%@,==O##;;;;,>>,>>,>12333331>>>>::,;;,;;;;;;;;,##,O,=,@,&&,,,",
",&%,@,,=O##;;;,:>,>>,1>>133331>>>>>:,;;,;;;;;;;;,;#,#O,=,@%&&,,,",
"%%,,@,,=O##;;,:>,>>,221>>13111>>>>>,;;,;;;;;;;;,;;,##O==,@,%%%%%",
",&,,@,==O##;;::>>122221>>>>>>>>>>>,:;;;;;;;;;;,;;,;##O==,@,&&,,,",
",,,,@,==O##;;::>12223331>>>>>>>>>,>:;;;;;;;;;,;;,;;##O==,@,&&,,,",
",,,,@==,O##;;::>>1222331>>>>>>>>,>:;;;;;;;;;,;;,;;;##O==,@,&,,,,",
",,,,@=,,O##;,::>>>12211>>>>>>>>,>:;;;;;;;;;,;;,;;;;##O==,@,&,,,,",
",,,,@==,O##,;;;:>>1>1>>>>>>>>>,::;;;;;;;;;,;;,;;;;;##O,=,@,&,,,,",
",,,,@==,O#,;;;;:>>>>>>>>>>>>>,:;;;;;;;;;;,;;,;;;;;###O,=,@,&,,,,",
",&,,@==,O###;;;;:::>>>>>>>>>,:;,;;;;;;;;,;;,;;;;;;##OO,=,@,,,,,,",
",&,,@==,OO##;;;;;;;::::::::,:;,;;;;;;;;,;;,;;;;;;###Oo,=,@,,&,,,",
",&,,@==,OOO##;;;;;;;::::;;,;;,;;;;;;;;,;;,;;;;;;;##OOo,=,@,,&,,,",
",&,,@===oOO###;;;;;;;;;;;;;;;;;;;;;;;;;;,;;;;;;;###OOo===@,,&,,,",
",,&,@===ooOO###;;;;;;;;;;;;;;;;;;;;;;;;,;;;;;;;##OOOoo===@,,&,,,",
",,&,@,== oooOO#########;;;;;;;;;;;;;;;,;;;;;;###OOoo  ===@,,&,,,",
",,&,@,,=   ooOO################################OOooo  ===@,,&,,,",
",,&,@===   ooOOOOOOOOOOOOOOOOOOOOOOOOOOOOOOOOOOOooo   ===@,,&,,,",
",&&,+&&&&&&&&++&&&&&&&&&&++&&&&&&&&&&&&&&&&+&&&&&&&&&&&+++,,&,,,",
",&,,++++++++++++++++++++++++++++++++++++++++++++++++++++++,,&&,,",
",&,%++++++++++++++++++++++++++++++++++++++++++++++++++++++%,&&,,",
"%%%,..................................................XXXX<%%%%%",
",&,,..............................................XXXX....,,,&,,",
",&,,@=,,,,,,,,,,,,,,&,,,,,,,,,,,,,,,,,,,&,,,,,,,,,<,,,,==@,,,&,,",
",&,,@=,,,,,,,,,,,,,,&,,,,,,,,,,,,,,,,,,,&,,,,,,,,,<<,,,==@,,,&,,",
",&,,@==,,,,,,,,,,,,,&,,,,,,,,,,,,,,,,,,,&,,,,,,,,,,<,,===@,,,&,,",
",&,,@==,,,,,,,,,,,,,&,,,,,,,,,,,,,,,,,,,&,,,,,,,,,,,<<===@,,&&,,",
",&,,@==,,,,,,,,,,,,,&,,,,,,,,,,,,,,,,,,,&,,,,,,,,,,,,<===@,,&,,,",
",,,,@===,,,,,,,,,,,,&,,,,,,,,,,,,,,,,,,,&,,,,,,,,,,,<,===@,,&,,,",
",,,,@===,,,,,,,,,,,,&,,,,,,,,,,,,,,,,,,,&,,,,,,,<<<<,,===@,,&,,,",
",,,,@===,,,,,,,,,,,,&,,,,,,,,,,,,,,,,,,,&,<<<<<<<<<<<<---$<<*<,,",
",,,,@====,,,,,,,,,,,&,,,,,,,,,,,,,,,,,,<*<<<,,,,,,,,,,===@,&&,,,",
",,,,@====,,,,,,,,,,,&,,,,,,,,,,,,,,,,,,,&,,,,,,,,,,,,,===@,&&,,,",
",,,,@====,,,,,,,,,,,&,,,,,,,,,,,,,,,,,,,&,,,,,,,,,,,,,===@,&&,,&",
",,,,@====,,,,,,,,,,,&,,,,,,,,,,,,,,,,,,,&,,,,,,,,,,,,====@,&,,,&",
",,,,@=====,,,,,,,,,,&,,,,,,,,,,,,,,,,,,,&,,,,,,,,,,,,====@,&,,,&",
",,,,@=====,,,,,,,,,,&,,,,,,,,,,,,,,,,,,,&,,,,,,,,,,,,====@,&,,&&"
};
