/* XPM */
static char *result[] = {
/* columns rows colors chars-per-pixel */
"64 64 37 1 ",
"  c gray10",
". c #393C2C",
"X c #4A4C3B",
"o c #292E46",
"O c #322947",
"+ c #3A3865",
"@ c #473B78",
"# c #3A4551",
"$ c #505D5D",
"% c #4B5070",
"& c #4F5575",
"* c #5C5D7A",
"= c #6A6471",
"- c #93986C",
"; c #A3A97B",
": c #BBDC46",
"> c #4B5BAB",
", c #5C73B7",
"< c #6178BC",
"1 c #6D80C0",
"2 c #708EC3",
"3 c #AAB083",
"4 c #BCBF95",
"5 c #D4D7B9",
"6 c #D7DABB",
"7 c #D8DBBA",
"8 c #DBDDBC",
"9 c #83A9D0",
"0 c #93BAE1",
"q c #BCD6F0",
"w c #C9CED7",
"e c #EBEDD3",
"r c #ECEED3",
"t c #DAE5E2",
"y c #D5E5F5",
"u c #FFFFEB",
"i c #E5F2FE",
/* pixels */
"eeee;77777eeeeeeeeee5eeeeeeeeeeeeeeeeeee5eeeeeeeeeeee7777;e5eeee",
"eeee;7777eeeeeeeeeee5eeeeeeeeeeeeeeeeeee5eeeeeeeeeeeee777;e5eeee",
"ee5e;7777eeeeeeeeeee5eeeeeeeeeeeeeeeeeee5eeeeeeeeeeeeee77;e5eeee",
"e55e;7777eeeeeeeeeee5eeeeeeeeeeeeeeeeeee5eeeeeeeeeeeeee77;e5eeee",
"e55e;7777eeeeeeeeeee5eeeeeeeeeeeeeeeeeee5eeeeeeeeeeeeee77;e5eeee",
"e55e;777eeeeeeeeeeee5eeeeeeeeeeeeeeeeeee5eeeeeeeeeeeeee77;e5eeee",
"e55e;777eeeeeeeeeeee5eeeeeeeeeeeeeeeeeee5eeeeeeeeeeeeee77;e5eeee",
"ee5e;777eeeeeeeeeeee5eeeeeeeeeeeeeeeeeee5eeeeeeeeeeeeee77;e5eeee",
"ee5e;777eeeeeeeeeeee5eeeeeeeeeeeeeeeeeee5eeeeeeeeeeeeee77;e5eeee",
"eeee;777eeeeeeeeeeee5eeeeeeeeeeeeeeeeeee5eeeeeeeeeeeee777;e5eeee",
"eeee;777eeeeeeeeeeee5eeeeeeeeeeeeeeeeeee5eeeeeeeeeeee7777;e5eeee",
"eeee;7777eeeeeeeeeee5eeeeeeeeeeeeeeeeeee5eeeeeeeeeee77777;ee5eee",
"ee5e;77777eeeeeeeeee5eeeeeeeeeeeeeeeeeee5eeeeeeeeee777777;e55eee",
"----------------------------------------------------------------",
"----------------------------------------------------------------",
"----------------------------------------------------------------",
"----------------------------------------------------------------",
"eeee;7e7   OOOO@@@@@@@@@@@@@@@@@@@@@@@@@@@@@@OOOOO    e7e;eeeeee",
"eeee;777  OOOO@@@@@>>>>>>>>>>>>>>>>>>>>>>@@@@@OOOOOO  77e;e5eeee",
"eeee;777 OOO@@@@@@>>>>>>>>>e>>e>>>>>>>>>>>>>>@e@@@@OO 77e;e5eeee",
"e5ee;777OOO@@@@@>>>>>99999e99e99999999999>>>>e>>>@@@OO777;e5eeee",
"e5ee;77eOO@@@@>>>>9999999e99e999999999999999e>>>>>>@@O777;e5eeee",
"e5ee;e7eO@@@@>>>99999999999e009999999999999e9>e>>>>@@@777;e5eeee",
"e5ee;e7e@@@@>>>99999999000e000009999999999e99e9>>>>>@@777;e5eeee",
"e5ee;e7e@@@>>>9999990000qeqyyqq0009999999e99e9999>>>@@7e7;e5eeee",
"5eee;e7e@@>>>9999990qeqqeyyuuyqqqq099999e99e99999>>>@@7e7;e5eeee",
"5eee;e77@>>>9999900qeqqeqyuuuuyqqqq0099e99e9999999>>>@777;e5eeee",
"5eee;e77@>>9999900qeqqeqyuuiiiiyqqq009e99e99999999>>>@e77;e5eeee",
"55e4;e77@>>9999eqqeqqeqyuiiiiiyqqqq00e99e99999999e>>e@e7e;e55eee",
"e54e;ee7@>>999e0qeqqeyqqyiiiiyqqqqq0e99e99999999e9>e>@e7e;455eee",
"44ee;ee7@>>99e0qeqqeuuyqqyiyyyqqqqqe99e99999999e99e>>@77e;e44444",
"e5ee;e77@>>9900qqyuuuuyqqqqqqqqqqqe09999999999e99e9>>@77e;e55eee",
"eeee;e77@>>9900qyuuuiiiyqqqqq**qqeq0999999999e99e99>>@77e;e55eee",
"eeee;77e@>>9900qqyuuuiiyqqqq*1*qeq09999%9999e99e999>>@77e;e5eeee",
"eeee;7ee@>>9e00qqqyuuyyqqqqq**1=q09999%,%99e99e9999>>@77e;e5eeee",
"eeee;77e@>>e9990qqyqyqqqqqqq*q=<&9999%,$%9e99e99999>>@e7e;e5eeee",
"eeee;77e@>e99990qqqqqqqqqqqqqe&,%999%,%9%e99e99999>>>@e7e;e5eeee",
"e5ee;77e@>>>9999000qqqqqqqqqe09=::%%%,%9e99e999999>>@@e7e;eeeeee",
"e5ee;77e@@>>999999900000000e09=,,,,,%%9e99e999999>>>@Oe7e;ee5eee",
"e5ee;77e@@@>>9999999000099e99=,#tt#t2%e99e9999999>>@@Oe7e;ee5eee",
"e5ee;777O@@>>>99999999999999%,t#tt#tt2%9e9999999>>>@@O777;ee5eee",
"ee5e;777OO@@>>>9999999999999%,ttttttt2%e9999999>>@@@OO777;ee5eee",
"ee5e;e77 OOO@@>>>>>>>>>99999%t#t##t#tt=999999>>>@@OO  777;ee5eee",
"ee5e;ee7   OO@@>>>>>>>>>>>>>+wwowwoww+>>>>>>>>>@@OOO  777;ee5eee",
"ee5e;777   OO@@@@@@@@@@@@@@@@@@@@@@@@@@@@@@@@@@@OOO   777;ee5eee",
"e55e-55555555--5555555555--5555555555555555-55555555555---ee5eee",
"e5ee------------------------------------------------------ee55ee",
"e5e4------------------------------------------------------4e55ee",
"444e..................................................XXXXr44444",
"e5ee..............................................XXXX....eee5ee",
"e5ee;7eeeeeeeeeeeeee5eeeeeeeeeeeeeeeeeee5eeeeeeeeereeee77;eee5ee",
"e5ee;7eeeeeeeeeeeeee5eeeeeeeeeeeeeeeeeee5eeeeeeeeerreee77;eee5ee",
"e5ee;77eeeeeeeeeeeee5eeeeeeeeeeeeeeeeeee5eeeeeeeeeeree777;eee5ee",
"e5ee;77eeeeeeeeeeeee5eeeeeeeeeeeeeeeeeee5eeeeeeeeeeerr777;ee55ee",
"e5ee;77eeeeeeeeeeeee5eeeeeeeeeeeeeeeeeee5eeeeeeeeeeeer777;ee5eee",
"eeee;777eeeeeeeeeeee5eeeeeeeeeeeeeeeeeee5eeeeeeeeeeere777;ee5eee",
"eeee;777eeeeeeeeeeee5eeeeeeeeeeeeeeeeeee5eeeeeeerrrree777;ee5eee",
"eeee;777eeeeeeeeeeee5eeeeeeeeeeeeeeeeeee5errrrrrrrrrrr8883rr6ree",
"eeee;7777eeeeeeeeeee5eeeeeeeeeeeeeeeeeer6rrreeeeeeeeee777;e55eee",
"eeee;7777eeeeeeeeeee5eeeeeeeeeeeeeeeeeee5eeeeeeeeeeeee777;e55eee",
"eeee;7777eeeeeeeeeee5eeeeeeeeeeeeeeeeeee5eeeeeeeeeeeee777;e55ee5",
"eeee;7777eeeeeeeeeee5eeeeeeeeeeeeeeeeeee5eeeeeeeeeeee7777;e5eee5",
"eeee;77777eeeeeeeeee5eeeeeeeeeeeeeeeeeee5eeeeeeeeeeee7777;e5eee5",
"eeee;77777eeeeeeeeee5eeeeeeeeeeeeeeeeeee5eeeeeeeeeeee7777;e5ee55"
};
