/* XPM */
static char *result[] = {
/* columns rows colors chars-per-pixel */
"64 64 37 1 ",
"  c gray10",
". c #393C2C",
"X c #4A4C3B",
"o c #322947",
"O c #3A3865",
"+ c #473B78",
"@ c #3A4551",
"# c #505D5D",
"$ c #4B5070",
"% c #4F5575",
"& c #5C5D7A",
"* c #6A6471",
"= c #93986C",
"- c #A3A97B",
"; c #BBDC46",
": c #4B5BAB",
"> c #5C73B7",
", c #6178BC",
"< c #6D80C0",
"1 c #708EC3",
"2 c #AAB083",
"3 c #BCBF95",
"4 c #D4D7B9",
"5 c #D7DABB",
"6 c #D8DBBA",
"7 c #DBDDBC",
"8 c #83A9D0",
"9 c #B2B9C5",
"0 c #93BAE1",
"q c #BCD6F0",
"w c #EBEDD3",
"e c #ECEED3",
"r c #DAE5E2",
"t c #D5E5F5",
"y c #F9F9E3",
"u c #FFFFEB",
"i c #E5F2FE",
/* pixels */
"wwww-66666wwwwwwwwww4wwwwwwwwwwwwwwwwwww4wwwwwwwwwwww6666-w4wwww",
"wwww-6666wwwwwwwwwww4wwwwwwwwwwwwwwwwwww4wwwwwwwwwwwww666-w4wwww",
"ww4w-6666wwwwwwwwwww4wwwwwwwwwwwwwwwwwww4wwwwwwwwwwwwww66-w4wwww",
"w44w-6666wwwwwwwwwww4wwwwwwwwwwwwwwwwwww4wwwwwwwwwwwwww66-w4wwww",
"w44w-6666wwwwwwwwwww4wwwwwwwwwwwwwwwwwww4wwwwwwwwwwwwww66-w4wwww",
"w44w-666wwwwwwwwwwww4wwwwwwwwwwwwwwwwwww4wwwwwwwwwwwwww66-w4wwww",
"w44w-666wwwwwwwwwwww4wwwwwwwwwwwwwwwwwww4wwwwwwwwwwwwww66-w4wwww",
"ww4w-666wwwwwwwwwwww4wwwwwwwwwwwwwwwwwww4wwwwwwwwwwwwww66-w4wwww",
"ww4w-666wwwwwwwwwwww4wwwwwwwwwwwwwwwwwww4wwwwwwwwwwwwww66-w4wwww",
"wwww-666wwwwwwwwwwww4wwwwwwwwwwwwwwwwwww4wwwwwwwwwwwww666-w4wwww",
"wwww-666wwwwwwwwwwww4wwwwwwwwwwwwwwwwwww4wwwwwwwwwwww6666-w4wwww",
"wwww-6666wwwwwwwwwww4wwwwwwwwwwwwwwwwwww4wwwwwwwwwww66666-ww4www",
"ww4w-66666wwwwwwwwww4wwwwwwwwwwwwwwwwwww4wwwwwwwwww666666-w44www",
"================================================================",
"================================================================",
"================================================================",
"================================================================",
"wwww-6w6   oooo++++++++++++++++++++++++++++++ooooo    w6w-wwwwww",
"wwww-666  oooo+++++::::::::::::::::::::::+++++oooooo  66w-w4wwww",
"wwww-666 ooo++++++:::::::::w::w::::::::::::::+w++++oo 66w-w4wwww",
"w4ww-666ooo+++++:::::88888w88w88888888888::::w:::+++oo666-w4wwww",
"w4ww-66woo++++::::8888888w88w888888888888888w::::::++o666-w4wwww",
"w4ww-w6wo++++:::88888888888w008888888888888w8:w::::+++666-w4wwww",
"w4ww-w6w++++:::88888888000w000008888888888w88w8:::::++666-w4wwww",
"w4ww-w6w+++:::8888880000qwqttqq0008888888w88w8888:::++6w6-w4wwww",
"4www-w6w++:::8888880qwqqwttuutqqqq088888w88w88888:::++6w6-w4wwww",
"4www-w66+:::8888800qwqqwqtuuuutqqqq0088w88w8888888:::+666-w4wwww",
"4www-w66+::8888800qwqqwqtuuiiiitqqq008w88w88888888:::+w66-w4wwww",
"44w3-w66+::8888wqqwqqwqtuiiiiitqqqq00w88w88888888w::w+w6w-w44www",
"w43w-ww6+::888w0qwqqwtqqtiiiitqqqqq0w88w88888888w8:w:+w6w-344www",
"33ww-ww6+::88w0qwqqwuutqqtitttq&&qqw88w88888888w88w::+66w-w33333",
"w4ww-w66+::8800qqtuuuutqqqqqqq&<&qw088888$8888w88w8::+66w-w44www",
"wwww-w66+::8800qtuuuiiitqqqqqq&&<*q08888$>$88w88w88::+66w-w44www",
"wwww-66w+::8800qqtuuuiitqqqqqq&q*<%8888$>#$8w88w888::+66w-w4wwww",
"wwww-6ww+::8w00qqqtuuttqqqqqqqqw&,$888$>$8$w88w8888::+66w-w4wwww",
"wwww-66w+::w8880qqtqtqqqqqqqqqw00$;;$$$>$8w88w88888::+w6w-w4wwww",
"wwww-66w+:w88880qqqqqqqqqqqqqw08$>>>>>$$8w88w88888:::+w6w-w4wwww",
"w4ww-66w+:::8888000qqqqqqqqqw08*>@rr@r1$w88w888888::++w6w-wwwwww",
"w4ww-66w++::888888800000000w08*>r@rr@rr9$8w888888:::+ow6w-ww4www",
"w4ww-66w+++::8888888000088w88w$>rrrrrry1$w8888888::++ow6w-ww4www",
"w4ww-666o++:::8888888888888888$r@r@@r@rr*8888888:::++o666-ww4www",
"ww4w-666oo++:::888888888888888$rr@rr@rr*8888888::+++oo666-ww4www",
"ww4w-w66 ooo++:::::::::88888888$8rrrrr*888888:::++oo  666-ww4www",
"ww4w-ww6   oo++:::::::::::::::::OOOOOOO::::::::++ooo  666-ww4www",
"ww4w-666   oo+++++++++++++++++++++++++++++++++++ooo   666-ww4www",
"w44w=44444444==4444444444==4444444444444444=44444444444===ww4www",
"w4ww======================================================ww44ww",
"w4w3======================================================3w44ww",
"333w..................................................XXXXe33333",
"w4ww..............................................XXXX....www4ww",
"w4ww-6wwwwwwwwwwwwww4wwwwwwwwwwwwwwwwwww4wwwwwwwwwewwww66-www4ww",
"w4ww-6wwwwwwwwwwwwww4wwwwwwwwwwwwwwwwwww4wwwwwwwwweewww66-www4ww",
"w4ww-66wwwwwwwwwwwww4wwwwwwwwwwwwwwwwwww4wwwwwwwwwweww666-www4ww",
"w4ww-66wwwwwwwwwwwww4wwwwwwwwwwwwwwwwwww4wwwwwwwwwwwee666-ww44ww",
"w4ww-66wwwwwwwwwwwww4wwwwwwwwwwwwwwwwwww4wwwwwwwwwwwwe666-ww4www",
"wwww-666wwwwwwwwwwww4wwwwwwwwwwwwwwwwwww4wwwwwwwwwwwew666-ww4www",
"wwww-666wwwwwwwwwwww4wwwwwwwwwwwwwwwwwww4wwwwwwweeeeww666-ww4www",
"wwww-666wwwwwwwwwwww4wwwwwwwwwwwwwwwwwww4weeeeeeeeeeee7772ee5eww",
"wwww-6666wwwwwwwwwww4wwwwwwwwwwwwwwwwwwe5eeewwwwwwwwww666-w44www",
"wwww-6666wwwwwwwwwww4wwwwwwwwwwwwwwwwwww4wwwwwwwwwwwww666-w44www",
"wwww-6666wwwwwwwwwww4wwwwwwwwwwwwwwwwwww4wwwwwwwwwwwww666-w44ww4",
"wwww-6666wwwwwwwwwww4wwwwwwwwwwwwwwwwwww4wwwwwwwwwwww6666-w4www4",
"wwww-66666wwwwwwwwww4wwwwwwwwwwwwwwwwwww4wwwwwwwwwwww6666-w4www4",
"wwww-66666wwwwwwwwww4wwwwwwwwwwwwwwwwwww4wwwwwwwwwwww6666-w4ww44"
};
