/* XPM */
static char *result[] = {
/* columns rows colors chars-per-pixel */
"64 64 37 1 ",
"  c gray10",
". c #393C2C",
"X c #4A4C3B",
"o c #292E46",
"O c #322947",
"+ c #392F56",
"@ c #3A3865",
"# c #473B78",
"$ c #3A4551",
"% c #3F4652",
"& c #4B5070",
"* c #6A6471",
"= c #93986C",
"- c #A3A97B",
"; c #BBDC46",
": c #DBF047",
"> c #4B5BAB",
", c #5C73B7",
"< c #7B87B7",
"1 c #708EC3",
"2 c #AAB083",
"3 c #BCBF95",
"4 c #D4D7B9",
"5 c #D7DABB",
"6 c #D8DBBA",
"7 c #DBDDBC",
"8 c #83A9D0",
"9 c #93BAE1",
"0 c #BCD6F0",
"q c #C8C4C8",
"w c #C9CED7",
"e c #EBEDD3",
"r c #ECEED3",
"t c #DAE5E2",
"y c #D5E5F5",
"u c #FFFFEB",
"i c #E5F2FE",
/* pixels */
"eeee-66666eeeeeeeeee4eeeeeeeeeeeeeeeeeee4eeeeeeeeeeee6666-e4eeee",
"eeee-6666eeeeeeeeeee4eeeeeeeeeeeeeeeeeee4eeeeeeeeeeeee666-e4eeee",
"ee4e-6666eeeeeeeeeee4eeeeeeeeeeeeeeeeeee4eeeeeeeeeeeeee66-e4eeee",
"e44e-6666eeeeeeeeeee4eeeeeeeeeeeeeeeeeee4eeeeeeeeeeeeee66-e4eeee",
"e44e-6666eeeeeeeeeee4eeeeeeeeeeeeeeeeeee4eeeeeeeeeeeeee66-e4eeee",
"e44e-666eeeeeeeeeeee4eeeeeeeeeeeeeeeeeee4eeeeeeeeeeeeee66-e4eeee",
"e44e-666eeeeeeeeeeee4eeeeeeeeeeeeeeeeeee4eeeeeeeeeeeeee66-e4eeee",
"ee4e-666eeeeeeeeeeee4eeeeeeeeeeeeeeeeeee4eeeeeeeeeeeeee66-e4eeee",
"ee4e-666eeeeeeeeeeee4eeeeeeeeeeeeeeeeeee4eeeeeeeeeeeeee66-e4eeee",
"eeee-666eeeeeeeeeeee4eeeeeeeeeeeeeeeeeee4eeeeeeeeeeeee666-e4eeee",
"eeee-666eeeeeeeeeeee4eeeeeeeeeeeeeeeeeee4eeeeeeeeeeee6666-e4eeee",
"eeee-6666eeeeeeeeeee4eeeeeeeeeeeeeeeeeee4eeeeeeeeeee66666-ee4eee",
"ee4e-66666eeeeeeeeee4eeeeeeeeeeeeeeeeeee4eeeeeeeeee666666-e44eee",
"================================================================",
"================================================================",
"================================================================",
"================================================================",
"eeee-6e6   OOOO##############################OOOOO    e6e-eeeeee",
"eeee-666  OOOO#####>>>>>>>>>>>>>>>>>>>>>>#####OOOOOO  66e-e4eeee",
"eeee-666 OOO######>>>>>>>>>e>>e>>>>>>>>>>>>>>#e####OO 66e-e4eeee",
"e4ee-666OOO#####>>>>>88888e88e88888888888>>>>e>>>###OO666-e4eeee",
"e4ee-66eOO####>>>>8888888e88e888888888888888e>>>>>>##O666-e4eeee",
"e4ee-e6eO####>>>88888888888e998888888888888e8>e>>>>###666-e4eeee",
"e4ee-e6e####>>>88888888999e999998888888888e88e8>>>>>##666-e4eeee",
"e4ee-e6e###>>>88888899990e0yy009998888888e88e8888>>>##6e6-e4eeee",
"4eee-e6e##>>>88888890e00eyyuuy0000988888e88e88888>>>##6e6-e4eeee",
"4eee-e66#>>>88888990e00e0yuuuuy00009988e88e8888888>>>#666-e4eeee",
"4eee-e66#>>88888990e00e0yuuiiiiy000998e88e88888888>>>#e66-e4eeee",
"44e3-e66#>>8888e00e00e0yuiiiiiy000099e88e88888888e>>e#e6e-e44eee",
"e43e-ee6#>>888e90e00ey00yiiiiy000009e88e88888888e8>e>#e6e-344eee",
"33ee-ee6#>>88e90e00euuy00yiyyy00000e88e88888888e88e>>#66e-e33333",
"e4ee-e66#>>889900yuuuuy00000000000e988888&&888e88e8>>#66e-e44eee",
"eeee-e66#>>88990yuuuiiiy000000000e098888&,&88e88e88@>#66e-e44eee",
"eeee-66e#>>889900yuuuiiy00000000e0988888&&,&e88e88&>@#66e-e4eeee",
"eeee-6ee#>>8e99000yuuyy00000000e09888888&8&<&8e88&,%@#66e-e4eeee",
"eeee-66e#>>e888900y0y000000000e99888888888*,&e88&,&>@#e6e-e4eeee",
"eeee-66e#>e888890000000000000e98888888888e8&:;&&&,@>>#e6e-e4eeee",
"e4ee-66e#>>>8888999000000000e98e88888888e8&<,,,,&&>>##e6e-eeeeee",
"e4ee-66e##>>888888899999999e98e88888888e8&<$tt$t1@>>#Oe6e-ee4eee",
"e4ee-66e###>>8888888999988e88e88888888e8&<t$tt$tt>@##Oe6e-ee4eee",
"e4ee-666O##>>>88888888888888888888888888*,ttttttw>@##O666-ee4eee",
"ee4e-666OO##>>>888888888888888888888888e&t$t$$towq+#OO666-ee4eee",
"ee4e-e66 OOO##>>>>>>>>>888888888888888e8&tt$twowq#OO  666-ee4eee",
"ee4e-ee6   OO##>>>>>>>>>>>>>>>>>>>>>>>>>>@>wwwwq#OOO  666-ee4eee",
"ee4e-666   OO###################################OOO   666-ee4eee",
"e44e=44444444==4444444444==4444444444444444=44444444444===ee4eee",
"e4ee======================================================ee44ee",
"e4e3======================================================3e44ee",
"333e..................................................XXXXr33333",
"e4ee..............................................XXXX....eee4ee",
"e4ee-6eeeeeeeeeeeeee4eeeeeeeeeeeeeeeeeee4eeeeeeeeereeee66-eee4ee",
"e4ee-6eeeeeeeeeeeeee4eeeeeeeeeeeeeeeeeee4eeeeeeeeerreee66-eee4ee",
"e4ee-66eeeeeeeeeeeee4eeeeeeeeeeeeeeeeeee4eeeeeeeeeeree666-eee4ee",
"e4ee-66eeeeeeeeeeeee4eeeeeeeeeeeeeeeeeee4eeeeeeeeeeerr666-ee44ee",
"e4ee-66eeeeeeeeeeeee4eeeeeeeeeeeeeeeeeee4eeeeeeeeeeeer666-ee4eee",
"eeee-666eeeeeeeeeeee4eeeeeeeeeeeeeeeeeee4eeeeeeeeeeere666-ee4eee",
"eeee-666eeeeeeeeeeee4eeeeeeeeeeeeeeeeeee4eeeeeeerrrree666-ee4eee",
"eeee-666eeeeeeeeeeee4eeeeeeeeeeeeeeeeeee4errrrrrrrrrrr7772rr5ree",
"eeee-6666eeeeeeeeeee4eeeeeeeeeeeeeeeeeer5rrreeeeeeeeee666-e44eee",
"eeee-6666eeeeeeeeeee4eeeeeeeeeeeeeeeeeee4eeeeeeeeeeeee666-e44eee",
"eeee-6666eeeeeeeeeee4eeeeeeeeeeeeeeeeeee4eeeeeeeeeeeee666-e44ee4",
"eeee-6666eeeeeeeeeee4eeeeeeeeeeeeeeeeeee4eeeeeeeeeeee6666-e4eee4",
"eeee-66666eeeeeeeeee4eeeeeeeeeeeeeeeeeee4eeeeeeeeeeee6666-e4eee4",
"eeee-66666eeeeeeeeee4eeeeeeeeeeeeeeeeeee4eeeeeeeeeeee6666-e4ee44"
};
