/* XPM */
static char *c91d23cfac744459f0dca49132669671sa7zb0a7L4ArDx3p[] = {
/* columns rows colors chars-per-pixel */
"64 64 16 1 ",
"  c #560600",
". c #5F614B",
"X c #820900",
"o c #A50D02",
"O c #CA0E01",
"+ c #FF1100",
"@ c #FF2E1F",
"# c #F9796F",
"$ c #93986C",
"% c #A3A97B",
"& c #BCBF95",
"* c #BBBD9F",
"= c #D4D7B9",
"- c #D8DBBA",
"; c #E7EACA",
": c #EBEDD3",
/* pixels */
"::::%-----::::::::::=:::::::::::::::::::=::::::::::::----%:=::::",
"::::%----:::::::::::=:::::::::::::::::::=:::::::::::::---%:=::::",
"::=:%----:::::::::::=:::::::::::::::::::=::::::::::::::--%:=::::",
":==:%----:::::::::::=:::::::::::::::::::=::::::::::::::--%:=::::",
":==:%----:::::::::::=:::::::::::::::::::=::::::::::::::--%:=::::",
":==:%---::::::::::::=:::::::::::::::::::=::::::::::::::--%:=::::",
":==:%---::::::::::::=:::::::::::::::::::=::::::::::::::--%:=::::",
"::=:%---::::::::::::=:::::::::::::::::::=::::::::::::::--%:=::::",
"::=:%---::::::::::::=:::::::::::::::::::=::::::::::::::--%:=::::",
"::::%---::::::::::::=:::::::::::::::::::=:::::::::::::---%:=::::",
"::::%---::::::::::::=:::::::::::::::::::=::::::::::::----%:=::::",
"::::%----:::::::::::=:::::::::::::::::::=:::::::::::-----%::=:::",
"::=:%-----::::::::::=:::::::::::::::::::=::::::::::------%:==:::",
"$$$$$$$$$$$$$$$$$$$$$$$$$$$$$$$$$$$$$$$$$$$$$$$$$$$$$$$$$$$$$$$$",
"$$$$$$$$$$$$$$$$$$$$$$$$$$$$$$$$$$$$$$$$$$$$$$$$$$$$$$$$$$$$$$$$",
"$$$$$$$$$$$$$$$$$$$$$$$$$$$$$$$$$$$$$$$$$$$$$$$$$$$$$$$$$$$$$$$$",
"$$$$$$$$$$$$$$$$$$$$$$$$$$$$$$$$$$$$$$$$$$$$$$$$$$$$$$$$$$$$$$$$",
"::::%-----===========================================----%::::::",
"::::%-----::::::::::=:::::::::::::::::::=::::::::::::==--%:=::::",
"::::%----:::::::::::=:::::::::::::::::::=:::::::::::::---%:=::::",
":=::%----:::::::::::=:::::::::::::::::::=:::::::::::::---%:=::::",
":=::%---::::::::::::=:::::::::::::::::::=:::::::::::::---%:=::::",
":=::%---::::::::::::=:::::::::::::::::::=::::::::::::::--%:=::::",
":=::%---::::::::::::=:::::::::::::::::::=::::::::::::::--%:=::::",
":=::%--:::::::::::::=:::::::::::::::::::=::::::::::::::--%:=::::",
"=:::%--:::::::::::::=:::::::::::::::::::=::::::::::::::--%:=::::",
"=:::%--:::::::::::::=:::::::::::::::::::=::::::::::::::--%:=::::",
"=:::%-;:::::::::::::=:::::::::::::::::::=::::::::::::::--%:=::::",
"==:&%==:::::::::::::=:::::::::::::::::::=::::::::::::::--%:==:::",
":=&:%-===================================================%&==:::",
"&&::%--:::::::::::::=:::::::::::::::::::=::::::::::::::--%:&&&&&",
":=::%--:::::::::::::=:::::::::::::::::::=::::::::::::::--%:==:::",
"::::%--:::::::oooooooooooooooooooooooO::=::::::::::::::--%:==:::",
"::::%--:::::::o+++++++OX+++++++++++++Oo:=::::::::::::::--%:=::::",
"::::%--:::::::o++++++OXX ++++++++++++OoX=::::::::::::::--%:=::::",
"::::%--:::::::o+++++++  +++++++++++++OoX=:::::::::::::::-%:=::::",
"::::%--:::::::o+X oX+++++@@++++X oX++OoX=:::::::::::::::-%:=::::",
":=::%--:::::::#+ o o++++@@O@+++ o o++OoX=:::::::::::::::-%::::::",
":=::%--:::::::#+o o +++OOOOoX++o o ++OoX=:::::::::::::::-%::=:::",
":=::%--:::::::o+Xo X+++oOOooX++Xo X++OoX=::::::::::::::--%::=:::",
":=::%--:::::::o++++++++ooXoXX++++++++OoX=::::::::::::::--%::=:::",
"::=:%--:::::::o+++++++++XXXX+++++++++OoX=::::::::::::::--%::=:::",
"::=:%--:::::::OOOOOOOOOOOOOOOOOOOOOOOOoX=::::::::::::::--%::=:::",
"::=:%--:::::::OooooooooooooooooooooooOoX=::::::::::::::--%::=:::",
"::=:%--:::::::Oo++=++&++&++++++++++++OoX=::::::::::::::--%::=:::",
":==:%--:::::::Oo&++=+&+&+++++++++++++OoX=::::::::::::::--%::=:::",
":=::%-::::::::Oo+&+=&&&*++++=++=+++=+OoX=::::::::::::::--%::==::",
":=:&%========:Oo*++&+++.++++=++=+++=+OoX=::::::::::::::==%&:==::",
"&&&:%--:::::==Oo+.+&&&&.++++*++*++.++OoX================-%:&&&&&",
":=::%--:::::::Oo+++&+++*+++*++=+*++++OoX=::::::::::::::--%:::=::",
":=::%-::::::::Oo+.+*****++++++=+*++++OoX=::::::::::::::--%:::=::",
":=::%-::::::::Oo+.+&+++.++++++*+.++++OoX=::::::::::::::--%:::=::",
":=::%--:::::::Oo*++&++..++++*.+++..++OoX=:::::::::::::---%:::=::",
":=::%--:::::::Oo+++++++++++++++++++++OoX=:::::::::::::---%::==::",
":=::%--:::::::Oo+++++++++++++++++++++OoX=:::::::::::::---%::=:::",
"::::%---::::::Oo+++++++++++++++++++++ooX=:::::::::::::---%::=:::",
"::::%---::::::Oo+++++=++++=++++++++++ooX=:::::::::::::---%::=:::",
"::::%---::::::Oo++++===++=+=++++++o+oooX=:::::::::::::---%::=:::",
"::::%----:::::Oo+++++=+++=+=++++++oooooX=:::::::::::::---%:==:::",
"::::%----:::::Ooo+++**.+==*..++++ooooooX=:::::::::::::---%:==:::",
"::::%----:::::Oooo+*+*+.++*+++++oooooooX=:::::::::::::---%:==::=",
"::::%----:::::Ooooo*o*+++**.+o++oooooooX=::::::::::::----%:=:::=",
"::::%-----::::Ooooooo.oooo.++o+ooooooooX=::::::::::::----%:=:::=",
"::::%-----::::Ooooooo.oo.....ooooooooooX=::::::::::::----%:=::=="
};
