/* XPM */
static char *ff28df60c1f04abba5df402d810b76b7mIvVFOUNkC5hNW8B[] = {
/* columns rows colors chars-per-pixel */
"64 64 14 1 ",
"  c gray10",
". c #252620",
"X c #393C2C",
"o c #5F614B",
"O c #6D6F57",
"+ c #84866B",
"@ c #93986C",
"# c #A3A97B",
"$ c #A2A489",
"% c #BCBF95",
"& c #BBBD9F",
"* c #D4D7B9",
"= c #D8DBBA",
"- c #EBEDD3",
/* pixels */
"----#=====----------*-------------------*------------====#-*----",
"----#====-----------*-------------------*-------------===#-*----",
"--*-#====-----------*-------------------*--------------==#-*----",
"-**-#====-----------*-------------------*--------------==#-*----",
"-**-#====-----------*-------------------*--------------==#-*----",
"-**-#===------------*-------------------*--------------==#-*----",
"-**-#===------------*-------------------*--------------==#-*----",
"--*-#===------------*-------------------*--------------==#-*----",
"--*-#===------------*-------------------*--------------==#-*----",
"----#===------------*-------------------*-------------===#-*----",
"----#===------------*-------------------*------------====#-*----",
"----#====-----------*-------------------*-----------=====#--*---",
"--*-#=====----------*-------------------*----------======#-**---",
"@@@@@@@@@@@@@@@@@@@@@@@@@@@@@@@@@@@@@@@@@@@@@@@@@@@@@@@@@@@@@@@@",
"@@@@@@@@@@@@@@@@@@@@@@@@@@@@@@@@@@@@@@@@@@@@@@@@@@@@@@@@@@@@@@@@",
"@@@@@@@@@@@@@@@@@@@@@@@@@@@@@@@@@@@@@@@@@@@@@@@@@@@@@@@@@@@@@@@@",
"@@@@$$$$$$$$$$$$$$$$$$$$$$$$$$$$$$$$$$$$$$$$$$$$$$$$$$$$$$@@@@@@",
"----         *        *        *        *        *        ------",
"----XOXOXOXOX*+X+X+X+X*OXOXOXOX*OXOXOXOX*OXOXOXOX*XOXOXOXX-*----",
"----X++&++++ *+&&++++ *++&++++ *+++++++ *+&&++++ *++&+++ X-*----",
"-*--X$+&&+++ *++&++++ *++&&+++ *+&&++++ *++&++++ *+&&+++ X-*----",
"-*--X $+++++$* +++++$$* ++++++$* ++++++$* ++++++$* +++++$X-*----",
"-*--X $++++$$* ++++++$* +++++$$* ++++++$* ++++++$* +++++$X-*----",
"-*--X+++++++ *+++++++ *+++++++ *++++++$ *+++++++ *++++++ X-*----",
"-*--X++++++$ *$+++++$ *++++++$ *+++$$++ *+++$$+$ *+++++$ X-*----",
"*---X$$$++$$$*$$$$+$$$*+$$$$$$$*+$$$$$$$*+$$$$$$$*+$$$$$$X-*----",
"*---         *        *        *        *        *        -*----",
"*--- **************************************************** -*----",
"**--         *        *        *        *        *        -**---",
"-*--XOXOXOXOX*OXOXOXOX*OXOXOXOX*OXOXOXOX*OXOXOXOX*XOXOXOXX-**---",
"%%%%X+++++++ *+++++++ *+++++++ *+++++++ *+++++++ *++++++ X%%%%%%",
"-*--X+++++++ *+++++++ *+++++++ *+++++++ *+++++++ *++++++ X-**---",
"----X +++++++* +++++++* ++++++$* +++++++* ++++++$* +++++$X-**---",
"----X +++++++* +++++++* +++++$$* +++++++* ++++++$* +++++$X-*----",
"----X+++++++$*+++++++$*++++++$$*+++++++$*+++++++$*++++++$X-*----",
"----X+++++++ *++++++$ *++++++$ *+++++++ *+++++++ *++++++ X-*----",
"----X++++++$ *++++++$ *+++++++ *++++++$ *++++$++ *++++$+ X-*----",
"-*--Xo+$$o$$$*o$$$o$$$*+o$$$$$$*o$$$$$$$*++$$$$$+*$o+$$$$X------",
"-*--         *        *        *        *        *        --*---",
"-*-- **************************************************** --*---",
"-*--         *        *        *        *        *        --*---",
"--*-XOXOXOXOX*OXOXOXOX*OXOXOXOX*OXOXOXOX*OXOXOXOX*XOXOXOXX--*---",
"--*-X+++++++ *+++++++ *+++++++ *+++++++ *+++++++ *++++++ X--*---",
"--*-X+++++++ *+++++++ *+++++++ *+++++++ *+++++++ *++++++ X--*---",
"--*-X +++++++* +++++++* +++++++* +++++++* +++++++* ++++++X--*---",
"-**-X +++++++* +++++++* +++++++* +++++++* +++++++* ++++++X--*---",
"-*--X+++++++$*+++++++$*+++++++$*+++++++$*+++++++$*++++++$X--**--",
"-*--X+++++++ *+++++++ *+++++++ *+++++++ *+++++++ *++++++ X--**--",
"%%%%X+o+++oo *+o+++oo *+o+++oo *o+o++oo *o++++oo *o+++oo X%%%%%%",
"-*--Xoo$$$$oo*oo$$$ooo*oo$$$$oo*ooo$$$oo*ooo$$$oo*ooo$$ooX---*--",
"-*--         *        *        *        *        *        ---*--",
"-*-- **************************************************** ---*--",
"-*--         *        *        *        *        *        ---*--",
"-*--XOXOXOXOX*OXOXOXOX*OXOXOXOX*OXOXOXOX*OXOXOXOX*XOXOXOXX--**--",
"-*--X+++++++ *+++++++ *+++++++ *+++++++ *+++++++ *++++++ X--*---",
"----X+++++++ *+++++++ *+++++++ *+++++++ *+++++++ *++++++ X--*---",
"----X +++++o+* +++o++o* +++++oo* ++++++o* +++++oo* +++++oX--*---",
"----X +++ooo$* o+oo++$* o+++oo$* oo+++o$* o++++o$* ++++o$X--*---",
"----Xo++o+oo *ooooooo *oo++ooo *ooo+ooo *ooo++oo *o+++oo X-**---",
"----XooooooX *ooooXXo *oooooXo *oooooXo *oooooXo *oooooX X-**---",
"----XoXXXXXXX*ooXXXXXX*ooXXXXXX*ooXXXXXX*oXXXXXXX*oXXXXXXX-**--*",
"----                                                      -*---*",
"---- .................................................... -*---*",
"----                                                      -*--**"
};
