/* XPM */
static char *_244829200b7496983f216332b02d8f2hlg7QFbWihwBU0KK[] = {
/* columns rows colors chars-per-pixel */
"64 64 7 1 ",
"  c #C0C0C0",
". c gray79",
"X c #E1E1E1",
"o c #E4E4E4",
"O c gray93",
"+ c gray96",
"@ c white",
/* pixels */
"OOOOoOOOOOOOOOOOOOOoOOOOOOOOOOOOOOOOOOOOOOOOOOOOOOOOOOOOOOoOOOOO",
"OOOOoOOOOOOOOOOOOOOoOOOOOOOOOOOOOOOOOOOOOOOOOoOOOOOOOOOOOOoOOOOO",
"OOOOoOOOOOOOOOOOOOOoOOOOOOOOOOOOOOOOOOOOOOOOOoOOOOOOOOOOOOoOOOOO",
"OOOOoOOOOOOOOOOOOOOoOOOOOOOOOOOOOOOOOOOOOOOOOoOOOOOOOOOOOOoOOOOO",
"OOOOoOOOOOOOOOOOOOOoOOOOOOOOOOOOOOOOOOOOOOOOOoOOOOOOOOOOOOoOOOOO",
"OOOOoOOOOOOOOOOOOOOoOOOOO+++++++++++++++OOOOOoOOOOOOOOOOOOoOOOOO",
"OOOOoOOOOOOOOOOOOOOoOOO+++++++++++++++++++OOOoOOOOOOOOOOOOoOOOOO",
"OOOOoOOOOOOOOOOOOOOoO+                     +OoOOOOOOOOOOOOoOOOOO",
"OOOOoOOOOOOOOOOOOOOoO+ .XXXXXXXXXXXXXX.... +OoOOOOOOOOOOOOoOOOOO",
"OOOOoOOOOOOOOOOOOOOoO+ .@@@@@@@@@@@@@@@@@X +OoOOOOOOOOOOOOoOOOOO",
"OOOOoOOOOOOOOOOOOOOoO+ .@@@@@@@@@@@@@@@@@X +OoOOOOOOOOOOOOoOOOOO",
"OOOOoOOOOOOOOOOOOOOoO+ X@@@@@@@@@@@@@@@@@X +OoOOOOOOOOOOOOoOOOOO",
"OOOOoOOOOOOOOOOOOOOoO+ X@@@@@@@@@@@@@@@@@X +OoOOOOOOOOOOOOoOOOOO",
"OOOOoOOOOOOOOOOOOOOoO+ X@@@@@@@@@@@@@@@@@X +OoOOOOOOOOOOOOoOOOOO",
"OOOOoOOOOOOOOOOOOOOoO+ X@@@@@@@@@@@@@@@@@. +OoOOOOOOOOOOOOoOOOOO",
"OOOOoOOOOOOOOOOOOOOoO+ X@@@@@@@@@@@@@@@@@. +OoOOOOOOOOOOOOoOOOOO",
"OOOOoOOOOOOOOOOOOOOoO+ X@@@@@@@@@@@@@@@@@X +OoOOOOOOOOOOOOoOOOOO",
"OOOOoOOOOOOOOOOOOOOoO+ X@@@@@@@@@@@@@@@@@X +OoOOOOOOOOOOOOoOOOOO",
"OOOOoOOOOOOOOOOOOOOoO+ X@@@@@@@@@@@@@@@@@X +OoOOOOOOOOOOOOoOOOOO",
"OOOOoOOOOOOOOOOOOOOoO+ X@@@@@@@@@@@@@@@@@X +OoOOOOOOOOOOOOoOOOOO",
"OOOOoOOOOOOOOOOOOOOoO+ X@@@@@@@@@@@@@@@@@X +OoOOOOOOOOOOOOoOOOOO",
"OOOOoOOOOOOOOOOOOOOoO+ X@@@@@@@@@@@@@@@@@X +OoOOOOOOOOOOOOoOOOOO",
"OOOOoOOOOOOOOOOOOOOoO+ X@@@@@@@@@@@@@@@@@. +OoOOOOOOOOOOOOoOOOOO",
"OOOOoOOOOOOOOOOOOOOoO+ X@@@@@@@@@@@@@@@@@. +OoOOOOOOOOOOOOoOOOOO",
"OOOOoOOOOOOOOOOOOOOoO+ X@@@@@@@@@@@@@@@@@. +OoOOOOOOOOOOOOoOOOOO",
"OOOOoOOOOOOOOOOOOOOoO+ X@@@@@@@@@@@@@@@@@. +OoOOOOOOOOOOOOoOOOOO",
"OOOOoOOOOOOOOOOOOOOoO+ X@@@@@@@@@@@@@@@@@. +OoOOOOOOOOOOOOoOOOOO",
"OOOOoOOOOOOOOOOOOOOoO+ X@@@@@@@@@@@@@@@@@. +OoOOOOOOOOOOOOoOOOOO",
"OOOOoOOOOOOOOOOOOOOoO+ X@@@@@@@@@@@@@@@@@. +OoOOOOOOOOOOOOoOOOOO",
"OOOOoOOOOOOOOOOOOOOoO+ X@@@@@@@@@@@@@@@@@. +OoOOOOOOOOOOOOoOOOOO",
"OOOOoOOOOOOOOOOOOOOoO+ X@@@@@@@@@@@@@@@@@X +OoOOOOOOOOOOOOoOOOOO",
"OOOOoOOOOOOOOOOOOOOoO+ X@@@@@@@@@@@@@@@@@X +OoOOOOOOOOOOOOoOOOOO",
"OOOOoOOOOOOOOOOOOOOoO+ X@@@@@@@@@@@@@@@@@X +OoOOOOOOOOOOOOoOOOOO",
"OOOOoOOOOOOOOOOOOOOoO+ X@@@@@@@@@@@@@@@@@X +OoOOOOOOOOOOOOoOOOOO",
"OOOOoOOOOOOOOOOOOOOoO+ X@@@@@@@@@@@@@@@@@X +OoOOOOOOOOOOOOoOOOOO",
"OOOOoOOOOOOOOOOOOOOoO+ .@@@@@@@@@@@@@@@@@X +OoOOOOOOOOOOOOoOOOOO",
"OOOOoOOOOOOOOOOOOOOoO+ .@@@@@@@@@@@@@@@@@X +OoOOOOOOOOOOOOoOOOOO",
"OOOOoOOOOOOOOOOOOOOoO+ .@@@@@@@@@@@@@@@@@X +OoOOOOOOOOOOOOoOOOOO",
"OOOOoOOOOOOOOOOOOOOoO+ .@@@@@@@@@@@@@@@@@X +OoOOOOOOOOOOOOoOOOOO",
"OOOOoOOOOOOOOOOOOOOoO+ .@@@@@@@@@@@@@@@@@X +OoOOOOOOOOOOOOoOOOOO",
"OOOOoOOOOOOOOOOOOOOoO+ .@@@@@@@@@@@@@@@@@X +OoOOOOOOOOOOOOoOOOOO",
"OOOOoOOOOOOOOOOOOOOoO+ .@@@@@@@@@@@@@@@@@X +OoOOOOOOOOOOOOoOOOOO",
"OOOOoOOOOOOOOOOOOOOoO+ X@@@@@@@@@@@@@@@@@X +OoOOOOOOOOOOOOoOOOOO",
"OOOOoOOOOOOOOOOOOOOoO+ X@@@@@@@@@@@@@@@@@. +OoOOOOOOOOOOOOoOOOOO",
"OOOOoOOOOOOOOOOOOOOoO+ X@@@@@@@@@@@@@@@@@. +OoOOOOOOOOOOOOoOOOOO",
"OOOOoOOOOOOOOOOOOOOoO+ X@@@@@@@@@@@@@@@@@. +OoOOOOOOOOOOOOoOOOOO",
"OOOOoOOOOOOOOOOOOOOoO+ X@@@@@@@@@@@@@@@@@. +OoOOOOOOOOOOOOoOOOOO",
"OOOOoOOOOOOOOOOOOOOoO+ X@@@@@@@@@@@@@@@@@. +OoOOOOOOOOOOOOoOOOOO",
"OOOOoOOOOOOOOOOOOOOoO+ X@@@@@@@@@@@@@@@@@. +OoOOOOOOOOOOOOoOOOOO",
"OOOOoOOOOOOOOOOOOOOoO+ X@@@@@@@@@@@@@@@@@. +OoOOOOOOOOOOOOoOOOOO",
"OOOOoOOOOOOOOOOOOOOoO+ X@@@@@@@@@@@@@@@@@X +OoOOOOOOOOOOOOoOOOOO",
"OOOOoOOOOOOOOOOOOOOoO+ X@@@@@@@@@@@@@@@@@X +OoOOOOOOOOOOOOoOOOOO",
"OOOOoOOOOOOOOOOOOOOoO+ X@@@@@@@@@@@@@@@@@X +OoOOOOOOOOOOOOoOOOOO",
"OOOOoOOOOOOOOOOOOOOoO+ X@@@@@@@@@@@@@@@@@X +OoOOOOOOOOOOOOoOOOOO",
"OOOOoOOOOOOOOOOOOOOoO+ X@@@@@@@@@@@@@@@@@X +OoOOOOOOOOOOOOoOOOOO",
"OOOOoOOOOOOOOOOOOOOoO+ X@@@@@@@@@@@@@@@@@X +OoOOOOOOOOOOOOoOOOOO",
"OOOOoOOOOOOOOOOOOOOoO+ X..XXXXXXXXXXXX...X +OoOOOOOOOOOOOOoOOOOO",
"OOOOoOOOOOOOOOOOOOOoO+                     +OoOOOOOOOOOOOOoOOOOO",
"OOOOoOOOOOOOOOOOOOOoOO+++++++++++++++++++++OOoOOOOOOOOOOOOoOOOOO",
"OOOOoOOOOOOOOOOOOOOoOOOO++++++++++++++++OOOOOoOOOOOOOOOOOOoOOOOO",
"OOOOoOOOOOOOOOOOOOOoOOOOOOOOOOOOOOOOOOOOOOOOOoOOOOOOOOOOOOoOOOOO",
"OOOOoOOOOOOOOOOOOOOoOOOOOOOOOOOOOOOOOOOOOOOOOoOOOOOOOOOOOOoOOOOO",
"OOOOoOOOOOOOOOOOOOOoOOOOOOOOOOOOOOOOOOOOOOOOOoOOOOOOOOOOOOoOOOOO",
"OOOOoOOOOOOOOOOOOOOoOOOOOOOOOOOOOOOOOOOOOOOOOoOOOOOOOOOOOOoOOOOO"
};
