/* XPM */
static char *_f8a8633ae4a4b06b1d166a7d7e82861EA5hQFKEa6mUJuZ9[] = {
/* columns rows colors chars-per-pixel */
"64 64 16 1 ",
"  c gray10",
". c #393C2C",
"X c #322947",
"o c #473B78",
"O c #5F614A",
"+ c #EDED1C",
"@ c #93986C",
"# c #A3A97B",
"$ c #FFFF4F",
"% c #4B5BAB",
"& c #BCBF95",
"* c #D4D7B9",
"= c #83A9D0",
"- c #BCD6F0",
"; c #EBEDD3",
": c #FFFFEB",
/* pixels */
";;;;*...OOOOOOOOOOOOO@O@@@@@OOOOOOOO@@@@@OOOO.............**;;;;",
";;;;*..XXXXXXXXXXXXXXXoo%ooooooOOoooo%%%%XXXXXXXXXXXXXXXXO**;;;;",
";;;**.OXXXXooooo%%%%%%%%====%ooOOoo%%%%%%%%%%ooooooooXXXXO**;;;;",
";;;**.OXXoooo%%%%%%%%========%oOOo%==========%%%%%oooooXXO**;;;;",
";;;**.OXoo%%%%%%%=============%O.%================%%ooooXO**;;;;",
";;;**.OXoo%%%%%===============%O.%==================%%ooXO**;;;;",
";;;**.OXoo%%%=================%O.===================%%ooXO**;;;;",
";;;**.OXoo%%===================O.====================%ooXO**;;;;",
";;;**.Oooo%%==================-O.-===================%ooXO**;;;;",
";;;**.Oooo%==================--O.--=================%%ooXO**;;;;",
";;;**.Ooo%%%==========---------O.------============%%%oooO**;;;;",
";;;**..o%%%%%%%=====-----------O.------------==%%%%%%%%%oO***;;;",
";;***...OOOOOOOOOOOOOOOOOOOOOOOOOOOOOOOOOOOOOOOOOOOOOOOOOO***;;;",
"@@@@@@@@@@@@@@@@@@@@@@@@@@@@@@@@@@@@@@@@@@@@@@@@@@@@@@@@@@@@@@@@",
"@@@@@@@@@@@@@@@@@@@@@@@@@@@@@@@@@@@@@@@@@@@@@@@@@@@@@@@@@@@@@@@@",
"@@@@@@@@@@@@@@@@@@@@@@@@@@@@@@@@@@@@@@@@@@@@@@@@@@@@@@@@@@@@@@@@",
"@@@@@@@@@@@@@@@@@@@@@@@@@@@@@@@@@@@@@@@@@@@@@@@@@@@@@@@@@@@@@@@@",
";;;;#....OOOOOOOOOOOOOOOOOOOOOO...++++++++++$$$$+++++++++#;;;;;;",
";;;;#....&&&&&&&&&&&&&&&&&&&&&&&##++$$$$$$$$$$$$$++++++++#;*;;;;",
";;;;#..OO**;;;;;;;;;;;;;;;;;;;;;;;+$$$$$$$$$$$$$$$$$$++++#;*;;;;",
";*;;#.O&&*;;;;;;;;;;;;;;;;;;;;;;;;$$$$$$$$$$$$$$$$$$$$+++#;*;;;;",
";*;;#.O&&*;;;;;;;;;:--oo*;;;;;;;;;$$$$$$$$$$$$$$$$$$$$$++#;*;;;;",
";*;;#.O*&*;;;;;;;;;--===*;;;;;;;;;$$$$$$$$$$$$$$$$$$$$$++#;*;;;;",
";*;;#.O*&*;;;;;;;;;--=%%*;;;;;;;;;$$$$$$$$$$$$$$$$$$$$$++#;*;;;;",
";*;;#.O*&*;;;;;;;;;===%o*;;;;;;;;;$$$$$$$$$$$$$$$$$$$$$$+#;*;;;;",
"*;;;#.O*&*;;;;;;;;;==%oo*;;;;;;;;;$$$$$$$$$$$$$$$$$$$$$$$#;*;;;;",
"*;;;#.O*&*;;;;;;;;;;;;;;;;;;;;;;;;$$$$$$$$$$$$$$$$$$$$$$$#;*;;;;",
"*;;;#.O*&*;;;;;;;;;;;;;;;;;;;;;;;;$$$$$$$$$$$$$$$$$$$$$$$#;*;;;;",
"**;&#.O*&*;;;;;;;;;---oo*;;;;;;;;;$$$$$$$$$$$$$$$$$$$$$$$#;**;;;",
";*&;#.O*&*;;;;;;;;;--==o*;;;;;;;;;$$$$$$$$$$$$$$$$$$$$$$$#&**;;;",
"&&;;#.O*&*;;;;;;;;;-==%o*;;;;;;;;;$$$$$$$$$$$$$$$$$$$$$$$#;&&&&&",
";*;;#.O*&*;;;;;;;;;==%%%*;;;;;;;;;$$$$$$$$$$$$$$$$$$$$$$$#;**;;;",
";;;;#.O*&*;;;;;;;;;o=ooo*;;;;;;;;;$$$$$$$$$$$$$$$$$$$$$$$#;**;;;",
";;;;#.O*&*;;;;;;;;;;;;;;;;;;;;;;;;$$$$$$$$$$$$$$$$$$$$$$$#;*;;;;",
";;;;#.O*&*;;;;;;;;;;;;;;;;;;;;;;;;$$$$$$$$$$$$$$$$$$$$$$$#;*;;;;",
";;;;#.O*&*;;;;;;;;;--=oo*;;;;;;;;;$$$$$$$$$$$$$$$$$$$$$$$#;*;;;;",
";;;;#.O*&*;;;;;;;;;-====*;;;;;;;;;$$$$$$$$$$$$$$$$$$$$$$$#;*;;;;",
";*;;#.O*&*;;;;;;;;;===%o*;;;;;;;;;$$$$$$$$$$$$$$$$$$$$$$$#;;;;;;",
";*;;#. *&*;;;;;;;;;o=%oo*;;;;;;; ;$$$$$$$$$$$$$$$$$$$$$$$#;;*;;;",
";*;;#. *&*;;;;;;;;;o%ooo*;;;;;;; ;$$$$$$$$$$$$$$$$$$$$$$$#;;*;;;",
";*;;#. *&*;;;;;;;;;;;;;;;;;;;;;; ;$$$$$$$$$$$$$$$$$$$$$$$#;;*;;;",
";;*;#.O*&*;;;;;;;;;;;;;;;;;;;;;;;;$$$$$$$$$$$$$$$$$$$$$$$#;;*;;;",
";;*;#.O*&*;;;;;;;;;;;;;;;;;;;;;;;;$$$$$$$$$$$$$$$$$$$$$$$#;;*;;;",
";;*;#.O*&*;;;;;;;;;;;;;;;;;;;;;;;;$$$$$$$$$$$$$$$$$$$$$$$#;;*;;;",
";;*;#.O*&*;;;;;;;;;;;;;;;;;;;;;;;;$$$$$$$$$$$$$$$$$$$$$$$#;;*;;;",
";**;#.O*&*;;;;;;;;;;;;;;;;;;;;;;;;$$$$$$$$$$$$$$$$$$$$$$$#;;*;;;",
";*;;#.O*&*;;;;;;;;;;;;;;;;;;;;;;;;$$$$$$$$$$$$$$$$$$$$$$$#;;**;;",
";*;&#.O*&*;;;;;;;;;;;;;;;;;;;;;;;;$$$$$$$$$$$$$$$$$$$$$$$#&;**;;",
"&&&;#.O*&*;;;;;;;;;;;;;;;;;;;;;;;;$$$$$$$$$$$$$$$$$$$$$$$#;&&&&&",
";*;;#.O*&*;;;;;;;;;;;;;;;;;;;;;;;;$$$$$$$$$$$$$$$$$$$$$$$#;;;*;;",
";*;;#.O*&*;;;;;;;;;;;;;;;;;;;;;;;;$$$$$$$$$$$$$$$$$$$$$$$#;;;*;;",
";*;;#.O*&*;;;;;;;;;;;;;;;;;;;;;;;;$$$$$$$$$$$$$$$$$$$$$$$#;;;*;;",
";*;;#.O*&*;;;;;;;;;;;;;;;;;;;;;;;;$$$$$$$$$$$$$$$$$$$$$$$#;;;*;;",
";*;;#.O*&*;;;;;;;;;;;;;;;;;;;;;;;;$$$$$$$$$$$$$$$$$$$$$$$#;;**;;",
";*;;#.O*&*;;;;;;;;;;;;;;;;;;;;;;;;$$$$$$$$$$$$$$$$$$$$$$$#;;*;;;",
";;;;#.O&&*;;;;;;;;;;;;;;;;;;;;;;;;$$$$$$$$$$$$$$$$$$$$$$$#;;*;;;",
";;;;#.OO&*;;;;;;;;;;;;;;;;;;;;;;;;$$$$$$$$$$$$$$$$$$$$$$$#;;*;;;",
";;;;#.OO&*;;;;;;;;;;;;;;;;;;;;;;;;$$$$$$$$$$$$$$$$$$$$$$+#;;*;;;",
";;;;#..O&*;;;;;;;;;;;;;;;;;;;;;;;;$$$$$$$$$$$$$$$$$$$$$$+#;**;;;",
";;;;#...&*;;;;;;;;;;;;;;;;;;;;;;;;$$$$$$$$$$$$$$$$$$$$$++#;**;;;",
";;;;.....**;;;;;;;;;;;;;;;;;;;;;;&$$$$$$$$$$$$$$$$$$$$$++#;**;;*",
";;;...###&&*;;;;;;;;;;;;;;;;;;;;;&++$$$$$$$$$$$$$$$$$$+++#;*;;;*",
";;..OO&##&&&&;;;;;;;;;;;;;;;;;;&&&$++$$$$$$$$$$$$$$$+++++#;*;;;*",
";..OOO&&#&&&&&&&;;&&&;;;&&&&&&&&&&$+++++++++++++$$+++++++#;*;;**"
};
