/* XPM */
static char *_c3b04a4782040a2aaf618c13ba52f74Mqmg3T4tPG2eDVEp[] = {
/* columns rows colors chars-per-pixel */
"64 64 16 1 ",
"  c gray10",
". c #393C2C",
"X c #272736",
"o c #322947",
"O c #473B78",
"+ c #5F614A",
"@ c #93986C",
"# c #A3A97B",
"$ c #7E7E8F",
"% c #4B5BAB",
"& c #BCBF95",
"* c #D4D7B9",
"= c #83A9D0",
"- c #BCD6F0",
"; c #EBEDD3",
": c #FFFFEB",
/* pixels */
";;;;*...+++++++++++++@+@@@@@++++++++@@@@@++++.............**;;;;",
";;;;*..oooooooooooooooOO%OOOOOO++OOOO%%%%oooooooooooooooo+**;;;;",
";;;**.+ooooOOOOO%%%%%%%%====%OO++OO%%%%%%%%%%OOOOOOOOoooo+**;;;;",
";;;**.+ooOOOO%%%%%%%%========%O++O%==========%%%%%OOOOOoo+**;;;;",
";;;**.+oOO%%%%%%%=============%+.%================%%OOOOo+**;;;;",
";;;**.+oOO%%%%%===============%+.%==================%%OOo+**;;;;",
";;;**.+oOO%%%=================%+.===================%%OOo+**;;;;",
";;;**.+oOO%%===================+.====================%OOo+**;;;;",
";;;**.+OOO%%==================-+.-===================%OOo+**;;;;",
";;;**.+OOO%==================--+.--=================%%OOo+**;;;;",
";;;**.+OO%%%==========---------+.------============%%%OOO+**;;;;",
";;;**..O%%%%%%%=====-----------+.------------==%%%%%%%%%O+***;;;",
";;***...++++++++++++++++++++++++++++++++++++++++++++++++++***;;;",
"@@@@@@@@@@@@@@@@@@@@@@@@@@@@@@@@@@@@@@@@@@@@@@@@@@@@@@@@@@@@@@@@",
"@@@@@@@@@@@@@@@@@@@@@@@@@@@@@@@@@@@@@@@@@@@@@@@@@@@@@@@@@@@@@@@@",
"@@@@@@@@@@@@@@@@@@@@@@@@@@@@@@@@@@@@@@@@@@@@@@@@@@@@@@@@@@@@@@@@",
"@@@@@@@@@@@@@@@@@@@@@@@@@@@@@@@@@@@@@@@@@@@@@@@@@@@@@@@@@@@@@@@@",
";;;;#...........................++++++++++++++++++++++...#;;;;;;",
";;;;#...........................&&&&&&&&&&&&&&&&&&&&&&&###;*;;;;",
";;;;#..+++++++++++++++++++++++++**;;;;;;;;;;;;;;;;;;;;;;;#;*;;;;",
";*;;#.+&&**;;;;;;;;;;;;;;;;****&*;;;;;;;;;;;;;;;;;;;;;;;;#;*;;;;",
";*;;#.+&**;;;;;;;$$$OO*;;;;;;**&*;;;;;;;;;:--OO*;;;;;;;;;#;*;;;;",
";*;;#.+**;;;;;;;;:==%O*;;;;;;**&*;;;;;;;;;--===*;;;;;;;;;#;*;;;;",
";*;;#.+*;;;;;;;;;%=%%O*;;;;;;**&*;;;;;;;;;--=%%*;;;;;;;;;#;*;;;;",
";*;;#.+*;;;;;;;;;%=%Oo*;;;;;;;*&*;;;;;;;;;===%O*;;;;;;;;;#;*;;;;",
"*;;;#.+*;;;;;;;;;%%Ooo*;;;;;;;*&*;;;;;;;;;==%OO*;;;;;;;;;#;*;;;;",
"*;;;#.+*;;;;;;;;;;;;;;;;;;;;;;*&*;;;;;;;;;;;;;;;;;;;;;;;;#;*;;;;",
"*;;;#.+*;;;;;;;;;;;;;;:;;;;;;;*&*;;;;;;;;;;;;;;;;;;;;;;;;#;*;;;;",
"**;&#.+*;;;;;;;;;XXoOO*;;;;;;;*&*;;;;;;;;;---OO*;;;;;;;;;#;**;;;",
";*&;#.+*;;;;;;;;;X=%%O*;;;;;;**&*;;;;;;;;;--==O*;;;;;;;;;#&**;;;",
"&&;;#.+*;;;;;;;;;%=%Oo*;;;;;;**&*;;;;;;;;;-==%O*;;;;;;;;;#;&&&&&",
";*;;#.+*;;;;;;;;;%%Ooo*;;;;;;**&*;;;;;;;;;==%%%*;;;;;;;;;#;**;;;",
";;;;#.+*;;;;;;;;;%%Ooo*;;;;;;**&*;;;;;;;;;O=OOO*;;;;;;;;;#;**;;;",
";;;;#.+*;;;;;;;;;;;;;;;;;;;;;**&*;;;;;;;;;;;;;;;;;;;;;;;;#;*;;;;",
";;;;#.+;;;;;;;;;;;;;;;;;;;;;***&*;;;;;;;;;;;;;;;;;;;;;;;;#;*;;;;",
";;;;#.+;;;;;;;;;;OOOOO*;;;;;***&*;;;;;;;;;--=OO*;;;;;;;;;#;*;;;;",
";;;;#.+;;;;;;;;;;O=%%o*;;;;;***&*;;;;;;;;;-====*;;;;;;;;;#;*;;;;",
";*;;#.+;;;;;;;;;;OO%oo*;;;;;***&*;;;;;;;;;===%O*;;;;;;;;;#;;;;;;",
";*;;#. ;;;;;;;;;;OOooo*;;;;;***&*;;;;;;;;;O=%OO*;;;;;;; ;#;;*;;;",
";*;;#. ;;;;;;;;;;Ooooo*;;;;;***&*;;;;;;;;;O%OOO*;;;;;;; ;#;;*;;;",
";*;;#. ;;;;;;;;;;;;;;;;;;;;;***&*;;;;;;;;;;;;;;;;;;;;;; ;#;;*;;;",
";;*;#.+;;;;;;;;;;;;;;;;;;;;;***&*;;;;;;;;;;;;;;;;;;;;;;;;#;;*;;;",
";;*;#.+;;;;;;;;;;;;;;;;;;;;;***&*;;;;;;;;;;;;;;;;;;;;;;;;#;;*;;;",
";;*;#.+;;;;;;;;;;;;;;;;;;;;;***&*;;;;;;;;;;;;;;;;;;;;;;;;#;;*;;;",
";;*;#.+;;;;;;;;;;;;;;;;;;;;;***&*;;;;;;;;;;;;;;;;;;;;;;;;#;;*;;;",
";**;#.+;;;;;;;;;;;;;;;;;;;;;;**&*;;;;;;;;;;;;;;;;;;;;;;;;#;;*;;;",
";*;;#.+;;;;;;;;;;;;;;;;;;;;;;**&*;;;;;;;;;;;;;;;;;;;;;;;;#;;**;;",
";*;&#.+;;;;;;;;;;;;;;;;;;;;;;**&*;;;;;;;;;;;;;;;;;;;;;;;;#&;**;;",
"&&&;#.+;;;;;;;;;;;;;;;;;;;;;;**&*;;;;;;;;;;;;;;;;;;;;;;;;#;&&&&&",
";*;;#.+;;;;;;;;;;;;;;;;;;;;;;**&*;;;;;;;;;;;;;;;;;;;;;;;;#;;;*;;",
";*;;#.+;;;;;;;;;;;;;;;;;;;;;;**&*;;;;;;;;;;;;;;;;;;;;;;;;#;;;*;;",
";*;;#.+;;;;;;;;;;;;;;;;;;;;;;**&*;;;;;;;;;;;;;;;;;;;;;;;;#;;;*;;",
";*;;#.+*;;;;;;;;;;;;;;;;;;;;;;*&*;;;;;;;;;;;;;;;;;;;;;;;;#;;;*;;",
";*;;#.+*;;;;;;;;;;;;;;;;;;;;;;*&*;;;;;;;;;;;;;;;;;;;;;;;;#;;**;;",
";*;;#.+*;;;;;;;;;;;;;;;;;;;;;;*&*;;;;;;;;;;;;;;;;;;;;;;;;#;;*;;;",
";;;;#.+&;;;;;;;;;;;;;;;;;;;;;;*&*;;;;;;;;;;;;;;;;;;;;;;;;#;;*;;;",
";;;;#.++*;;;;;;;;;;;;;;;;;;;;;*&*;;;;;;;;;;;;;;;;;;;;;;;;#;;*;;;",
";;;;#.++**;;;;;;;;;;;;;;;;;;;**&*;;;;;;;;;;;;;;;;;;;;;;;;#;;*;;;",
";;;;#..+&&;;;;;;;;;;;;;;;;;;***&*;;;;;;;;;;;;;;;;;;;;;;;;#;**;;;",
";;;;#...+&&**;;;;;;;;;;;;;*****&*;;;;;;;;;;;;;;;;;;;;;;;;#;**;;;",
";;;;............................**;;;;;;;;;;;;;;;;;;;;;;&#;**;;*",
";;;...&&&&**************&&&+....&&*;;;;;;;;;;;;;;;;;;;;;&#;*;;;*",
";;..++&&&**;;;;;;;;;;;;;*&&&&+..&&&&;;;;;;;;;;;;;;;;;;&&&#;*;;;*",
";..+++&&**;;;;;;;;;;;;;;;*&&&+..&&&&&&&;;&&&;;;&&&&&&&&&&#;*;;**"
};
