/* XPM */
static char *_120acb68b2c479c87f85e18e024df9eBsVR22wblDAmADLT[] = {
/* columns rows colors chars-per-pixel */
"64 64 41 1 ",
"  c #0B0B10",
". c #15151D",
"X c gray10",
"o c #1F2018",
"O c #333428",
"+ c #393C2C",
"@ c #272736",
"# c #396036",
"$ c #39653B",
"% c #39693E",
"& c #4A4D3A",
"* c #75493B",
"= c #396E42",
"- c #397447",
"; c #397C4E",
": c #414240",
"> c #4F5045",
", c #565848",
"< c #6B5442",
"1 c #655A46",
"2 c #625D48",
"3 c #5F614A",
"4 c gray44",
"5 c #88342E",
"6 c #3A8657",
"7 c #3B9362",
"8 c #3CA370",
"9 c #808A5F",
"0 c #8C9059",
"q c #93986C",
"w c #B2B864",
"e c #A3A97B",
"r c gray62",
"t c #BCBF95",
"y c #D4D7B9",
"u c #D8DBBA",
"i c #D6D6D4",
"p c #D8D9D4",
"a c #DBDCD4",
"s c #E1E2D4",
"d c #EBEDD3",
/* pixels */
"ddddeuuuuuddddddddddydddddddddddddddddddydddddddddddduuuuedydddd",
"ddddeuuuudddddddddddydddddddddddddddddddyddddddddddddduuuedydddd",
"ddydeuuuudddddddddddydddddddddddddddddddydddddddddddddduuedydddd",
"dyydeuuuudddddddddddydddddddddddddddddddydddddddddddddduuedydddd",
"dyydeuuuudddddddddddydddddddddddddddddddydddddddddddddduuedydddd",
"dyydeuuuddddddddddddydddddddddddddddddddydddddddddddddduuedydddd",
"dyydeuuuddddddddddddydddddddddddddddddddydddddddddddddduuedydddd",
"ddydeuuuddddddddddddydddddddddddddddddddydddddddddddddduuedydddd",
"ddydeuuuddddddddddddydddddddddddddddddddydddddddddddddduuedydddd",
"ddddeuuuddddddddddddydddddddddddddddddddyddddddddddddduuuedydddd",
"ddddeuuuddddddddddddydddddddddddddddddddydddddddddddduuuuedydddd",
"ddddeuuuudddddddddddydddddddddddddddddddyddddddddddduuuuueddyddd",
"ddydeuuuuuddddddddddydddddddddddddddddddydddddddddduuuuuuedyyddd",
"qqqqqqqqqqqqqqqqqqqqqqqqqqqqqqqqqqqqqqqqqqqqqqqqqqqqqqqqqqqqqqqq",
"qqqqqqqqqqqqqqqqqqqqqqqqqqqqqqqqqqqqqqqqqqqqqqqqqqqqqqqqqqqqqqqq",
"qqqqqqqqqqqqqqqqqqqqqqqqqqqqqqqqqqqqqqqqqqqqqqqqqqqqqqqqqqqqqqqq",
"qqqqqqqqqqqqqqqqqqqqqqqqqq9qqqqqqqqqqqqqqqqqqqqqqqqqqqqqqqqqqqqq",
"dddde=-7888777777;6667777877866;666;$76677777777777787%88edddddd",
"dddde=XXXXXXXXXX8XXrX4rrXrX77;76;;;;7778ddddddd7678778;-8edydddd",
"dddde-..::>:>*@:8XXXXXXXXXX877677776-778ddddddd88%67777-8edydddd",
"dydde6..:::,1<5:8dddddddddd8876787776778dddddss877877;778edydddd",
"dydde7..::@<21*@8dddddddddd7;;8888777888dddssss8777778887edydddd",
"dydde6 ..@***11:8dddddddddd8776;;6777768dddsdss8788888777edydddd",
"dydde7 ..@:w*<*@8dddddddddd87778766;6#78dsssssd8777777788edydddd",
"dydde7..@330w0:@8dddddddddd877767888887888888888788777888edydddd",
"yddde7.O333300:@8XXXXXXXXXX8876687;6=778ddddddd7876777778edydddd",
"yddde7o33333300&8888888887788887;;677888ddddddd7778888878edydddd",
"yddde7++++++++++8777777777776666887%7788ddddsdd7888888878edydddd",
"yydte7XXXXXXXXXX888787;;7777666666677668ddssddd7ddddddd77edyyddd",
"dytde7XXXXXXXXXX887788dddddddddddddddd78dsasssd7ddddddd77etyyddd",
"ttdde78888887677777678dddddddddddddddd88sdddddd8ddddssd77edttttt",
"dydde78777776;66;78888ddddddddddddddsd7777777777dddassd77edyyddd",
"dddde77887777787777778ddddddddddssssid77$;666787ddasdsd77edyyddd",
"dddde87876677767788878dddddssssssdssad877;788677dsssssd77edydddd",
"dddde867778888dddddd78dsssaaaaaaaasssd8678776;77777888877edydddd",
"dddde87dddddd8dddddd77778666666666667887;6;;788886;788777edydddd",
"dddde87dddddd8ddddss78dddddddddddddddd8888886667788787788edydddd",
"dydde87ddddss8ddddis78dddddddddddddddd8876666777877778877edddddd",
"dydde88ddddis8dspsid77ddddddddddddddsd7678876;%7788777677eddyddd",
"dydde78dsspis8dsiiid87dddddddsssssssss8877667888777777777eddyddd",
"dydde-8siipsd888877787dsiiippaaapasdds8878%67777888767878eddyddd",
"ddyde=-66666666=687788dddsssssssssssss8878776;;;;;-;;6;68eddyddd",
"ddyde---;;;;;;;6;;-66776;-------;666666666=;-;;;--;;;;;;6eddyddd",
"ddydeuudddddddddddddydddddddddddddddddddydddddddddddddduueddyddd",
"ddydeuudddddddddddddydddddddddddddddddddydddddddddddddduueddyddd",
"dyydeuudddddddddddddydddddddddddddddddddydddddddddddddduueddyddd",
"dyddeuddddddddddddddydddddddddddddddddddydddddddddddddduueddyydd",
"dydteyyyyyyyydddddddydddddddddddddddddddyddddddddddddddyyetdyydd",
"tttdeuudddddyyyyyyyyyyyyyyyyyyyyyyyyyyyyyyyyyyyyyyyyyyyyuedttttt",
"dyddeuudddddddddddddydddddddddddddddddddydddddddddddddduuedddydd",
"dyddeuddddddddddddddydddddddddddddddddddydddddddddddddduuedddydd",
"dyddeuddddddddddddddydddddddddddddddddddydddddddddddddduuedddydd",
"dyddeuudddddddddddddydddddddddddddddddddyddddddddddddduuuedddydd",
"dyddeuudddddddddddddydddddddddddddddddddyddddddddddddduuueddyydd",
"dyddeuudddddddddddddydddddddddddddddddddyddddddddddddduuueddyddd",
"ddddeuuuddddddddddddydddddddddddddddddddyddddddddddddduuueddyddd",
"ddddeuuuddddddddddddydddddddddddddddddddyddddddddddddduuueddyddd",
"ddddeuuuddddddddddddydddddddddddddddddddyddddddddddddduuueddyddd",
"ddddeuuuudddddddddddydddddddddddddddddddyddddddddddddduuuedyyddd",
"ddddeuuuudddddddddddydddddddddddddddddddyddddddddddddduuuedyyddd",
"ddddeuuuudddddddddddydddddddddddddddddddyddddddddddddduuuedyyddy",
"ddddeuuuudddddddddddydddddddddddddddddddydddddddddddduuuuedydddy",
"ddddeuuuuuddddddddddydddddddddddddddddddydddddddddddduuuuedydddy",
"ddddeuuuuuddddddddddydddddddddddddddddddydddddddddddduuuuedyddyy"
};
