/* XPM */
static char *result[] = {
/* columns rows colors chars-per-pixel */
"64 64 13 1 ",
"  c #473B78",
". c #369364",
"X c #EDED1C",
"o c #93986C",
"O c #A3A97B",
"+ c #4CC287",
"@ c #2F97FF",
"# c #BCBF95",
"$ c #D4D7B9",
"% c #D8DBBA",
"& c #82C0FF",
"* c #E7EACA",
"= c #EBEDD3",
/* pixels */
"====O%%%%%==========$+.=================$==========+.%%%%O=$====",
"====O%%%%===========$+.=@===============$==========+.=%%%O=$====",
"==$=O%%%%=========++++@==@=@============$=@==@=====+.==%%O=$====",
"=$$=O%%%%=======+++.$=@=  =@============$= =  =@===+.==%%O=$====",
"=$$=O%%%%=======+.==$=@&XX&=@===========$@= XX& ===+.==%%O=$====",
"=$$=O%%%=======+.===$==&&X&@============$=@&X&&=@=+.===%%O=$====",
"=$$=O%%%======+.====$++&&&@=============$==&&&&+++.====%%O=$====",
"==$=O%%%======+.====+.==================$==@@==..======%%O=$====",
"==$=O%%%=======+.==+.===================$==============%%O=$====",
"====O%%%=======+++++.===@&==============$=============%%%O=$====",
"====O%%%============$====&==============$====@=======%%%%O=$====",
"====O%%%%===========$===================$====@==+++=%%%%%O==$===",
"==$=O%%%%%===@++.===$====+++.===========$===&===+.+%%%%%%O=$$===",
"oooooooooo@o@++@ooooooooo+.+.ooooooooooooooooooooo+ooooooooooooo",
"ooooooooooo o @oooooooooo+o+.ooooooooooooooooooooo+.oooooooooooo",
"ooooooooo@&o &+.ooooooooo+o+.ooooooooooooooooooooo+.oooooooooooo",
"oooooooooo&&X&&.@oooooooo+o+.ooooooooooooooooooooo+.oooooooooooo",
"====O%%%%%$&&&&@$$$$$$$$$+$$+.$$$$$$$$@$$$$$$$$$$$++$%%%%O======",
"====O%%%%%@===&@====$====+==+++.===@= =@$=========+.=$$%%O=$====",
"====O%%%%=====+.====$===+.=====+++++ X @$========++.==%%%O=$====",
"=$==O%%%%===++.=====$===+.==@======&+&&=$=======++.===%%%O=$====",
"=$==O%%%==@+@.@=====$===+.=@=======+&+.@$=@=====+.====%%%O=$====",
"=$==O%%%===+& =@====$==&+.=@======+.=+.=$==@===+.@=====%%O=$====",
"=$==O%%%=@+.& &=&=&@$==&@=========+.=+.=$==@===  &=@===%%O=$====",
"=$==O%%===+&&X&@====&@@+.========+.===+.$===== . & ====%%O=$====",
"$===O%%===+.@&@===&=& +.=========+.===++.=====+ X&=====%%O=$====",
"$===O%%===+.========&X+.=======++.=====+.=====@&&======%%O=$====",
"$===O%*===+.========&++.=======+.=======$=====+.=======%%O=$====",
"$$=#O$$=============++.======++.========$====++.=======%%O=$$===",
"=$#=O%$$$$$$$$$$$$$++.$$$$$$+.$$$$$$$$$$$$$$$+.+.&$$$$$$$O#$$===",
"##==O%%===========+.$=======+.==========$====+.+.@@====%%O=#####",
"=$==O%%=========+++&$=======+.==========$===++=+.=&====%%O=$$===",
"====O%%========+..@.$======+.===========$=++.==++.=====%%O=$$===",
"====O%%=======++.=+.$======+.== ========$=+.====+.=====%%O=$====",
"====O%%=======+.==+.$======++. =========@=+.=====+.====%%O=$====",
"====O%%=====++.===+.$======= . =&=======$&+.======+.====%O=$====",
"====O%%=====+.==&=+.$======== X&&=======$=+.======++.==@%O=$====",
"=$==O%%====+.===& =+.========@@@========$=+.=======+. =@%O======",
"=$==O%%====@.===&  &+.==================$+.========@ @@@%O&=$===",
"=$==O%%==@=+&@=@  X&+.================@=$+.=======@&&&&@%O&=$===",
"=$==O%%==@  &&@==&&&+.==============@==@+&.========+&X&% O=@$===",
"==$=O%%===&X&@==@@@@$+.==============@& +&========@@ &&@%O==$===",
"==$=O%%====&.=====@=$++.============@&&X&.&========+.==%%O==$===",
"==$=O%%===========@=+.=@.============@&& &========++===%%O==$===",
"==$=O%%============&+@=+@===========@@=+&========+.====%%O==$===",
"=$$=O%%============&.  + =============+.$========+=====%%O==$===",
"=$==O%============+&& X&.============+.=$=======+.=====%%O==$$==",
"=$=#O$$$$$$$$====+.=&&&&.===========+.==$=======+.=====$$O#=$$==",
"###=O%%=====$$$++.$$$$++.$$$$$$$$$$$+@$$$$$$$$$$+.$$$$$$%O=#####",
"=$==O%%=@=====+.====$=+.===========+@===$=======+.=====%%O===$==",
"=$==O%==&=@=@+.=====$=+.===========+.===$=======+&=====%%O===$==",
"=$==O%=@==@@ &@=====$=++.==========+.=@=$=@======@.====%%O===$==",
"=$==O%%== +. &@=====$==++.==========+.@=@=@======+.===%%%O===$==",
"=$==O%%==+@ X@======$===+++.========++. @=@=======+.==%%%O==$$==",
"=$==O%%=++.@&&@=====$================ +.  ========+.==%%%O==$===",
"====O%%%==&&========$=================  X&=@=====+.===%%%O==$===",
"====O%%%============$================ +@&@@======+.===%%%O==$===",
"====O%%%============$==================+.@@======+.===%%%O==$===",
"====O%%%%===========$=====@============@@.=&=@=++.====%%%O=$$===",
"====O%%%%===========$=====&============@   &@==+.=====%%%O=$$===",
"====O%%%%===========$======@============@X&&@===+=====%%%O&$$==$",
"====O%%%%===========$=================@@&&&&@===+++.=%%%%O@$===$",
"====O%%%%%==========$=================@=@& =======+.=%%%%O=&===$",
"====O%%%%%==========$===================@============%%%%O=$==$$"
};
