/* XPM */
static char *c7965beade4143ce96ff98c8a254180a90tkg9sJBExipLzz[] = {
/* columns rows colors chars-per-pixel */
"64 64 7 1 ",
"  c #93986C",
". c #A3A97B",
"X c #BCBF95",
"o c #D4D7B9",
"O c #D8DBBA",
"+ c #E7EACA",
"@ c #EBEDD3",
/* pixels */
"@@@@.OOOOO@@@@@@@@@@o@@@@@@@@@@@@@@@@@@@o@@@@@@@@@@@@OOOO.@o@@@@",
"@@@@.OOOO@@@@@@@@@@@o@@@@@@@@@@@@@@@@@@@o@@@@@@@@@@@@@OOO.@o@@@@",
"@@o@.OOOO@@@@@@@@@@@o@@@@@@@@@@@@@@@@@@@o@@@@@@@@@@@@@@OO.@o@@@@",
"@oo@.OOOO@@@@@@@@@@@o@@@@@@@@@@@@@@@@@@@o@@@@@@@@@@@@@@OO.@o@@@@",
"@oo@.OOOO@@@@@@@@@@@o@@@@@@@@@@@@@@@@@@@o@@@@@@@@@@@@@@OO.@o@@@@",
"@oo@.OOO@@@@@@@@@@@@o@@@@@@@@@@@@@@@@@@@o@@@@@@@@@@@@@@OO.@o@@@@",
"@oo@.OOO@@@@@@@@@@@@o@@@@@@@@@@@@@@@@@@@o@@@@@@@@@@@@@@OO.@o@@@@",
"@@o@.OOO@@@@@@@@@@@@o@@@@@@@@@@@@@@@@@@@o@@@@@@@@@@@@@@OO.@o@@@@",
"@@o@.OOO@@@@@@@@@@@@o@@@@@@@@@@@@@@@@@@@o@@@@@@@@@@@@@@OO.@o@@@@",
"@@@@.OOO@@@@@@@@@@@@o@@@@@@@@@@@@@@@@@@@o@@@@@@@@@@@@@OOO.@o@@@@",
"@@@@.OOO@@@@@@@@@@@@o@@@@@@@@@@@@@@@@@@@o@@@@@@@@@@@@OOOO.@o@@@@",
"@@@@.OOOO@@@@@@@@@@@o@@@@@@@@@@@@@@@@@@@o@@@@@@@@@@@OOOOO.@@o@@@",
"@@o@.OOOOO@@@@@@@@@@o@@@@@@@@@@@@@@@@@@@o@@@@@@@@@@OOOOOO.@oo@@@",
"                                                                ",
"                                                                ",
"                                                                ",
"                                                                ",
"@@@@.OOOOOoooooooooooooooooooooooooooooooooooooooooooOOOO.@@@@@@",
"@@@@.OOOOO@@@@@@@@@@o@@@@@@@@@@@@@@@@@@@o@@@@@@@@@@@@ooOO.@o@@@@",
"@@@@.OOOO@@@@@@@@@@@o@@@@@@@@@@@@@@@@@@@o@@@@@@@@@@@@@OOO.@o@@@@",
"@o@@.OOOO@@@@@@@@@@@o@@@@@@@@@@@@@@@@@@@o@@@@@@@@@@@@@OOO.@o@@@@",
"@o@@.OOO@@@@@@@@@@@@o@@@@@@@@@@@@@@@@@@@o@@@@@@@@@@@@@OOO.@o@@@@",
"@o@@.OOO@@@@@@@@@@@@o@@@@@@@@@@@@@@@@@@@o@@@@@@@@@@@@@@OO.@o@@@@",
"@o@@.OOO@@@@@@@@@@@@o@@@@@@@@@@@@@@@@@@@o@@@@@@@@@@@@@@OO.@o@@@@",
"@o@@.OO@@@@@@@@@@@@@o@@@@@@@@@@@@@@@@@@@o@@@@@@@@@@@@@@OO.@o@@@@",
"o@@@.OO@@@@@@@@@@@@@o@@@@@@@@@@@@@@@@@@@o@@@@@@@@@@@@@@OO.@o@@@@",
"o@@@.OO@@@@@@@@@@@@@o@@@@@@@@@@@@@@@@@@@o@@@@@@@@@@@@@@OO.@o@@@@",
"o@@@.O+@@@@@@@@@@@@@o@@@@@@@@@@@@@@@@@@@o@@@@@@@@@@@@@@OO.@o@@@@",
"oo@X.oo@@@@@@@@@@@@@o@@@@@@@@@@@@@@@@@@@o@@@@@@@@@@@@@@OO.@oo@@@",
"@oX@.Oooooooooooooooooooooooooooooooooooooooooooooooooooo.Xoo@@@",
"XX@@.OO@@@@@@@@@@@@@o@@@@@@@@@@@@@@@@@@@o@@@@@@@@@@@@@@OO.@XXXXX",
"@o@@.OO@@@@@@@@@@@@@o@@@@@@@@@@@@@@@@@@@o@@@@@@@@@@@@@@OO.@oo@@@",
"@@@@.OO@@@@@@@@@@@@@o@@@@@@@@@@@@@@@@@@@o@@@@@@@@@@@@@@OO.@oo@@@",
"@@@@.OO@@@@@@@@@@@@@o@@@@@@@@@@@@@@@@@@@o@@@@@@@@@@@@@@OO.@o@@@@",
"@@@@.OO@@@@@@@@@@@@@o@@@@@@@@@@@@@@@@@@@o@@@@@@@@@@@@@@OO.@o@@@@",
"@@@@.OO@@@@@@@@@@@@@o@@@@@@@@@@@@@@@@@@@o@@@@@@@@@@@@@@@O.@o@@@@",
"@@@@.OO@@@@@@@@@@@@@o@@@@@@@@@@@@@@@@@@@o@@@@@@@@@@@@@@@O.@o@@@@",
"@o@@.OO@@@@@@@@@@@@@o@@@@@@@@@@@@@@@@@@@o@@@@@@@@@@@@@@@O.@@@@@@",
"@o@@.OO@@@@@@@@@@@@@o@@@@@@@@@@@@@@@@@@@o@@@@@@@@@@@@@@@O.@@o@@@",
"@o@@.OO@@@@@@@@@@@@@o@@@@@@@@@@@@@@@@@@@o@@@@@@@@@@@@@@OO.@@o@@@",
"@o@@.OO@@@@@@@@@@@@@o@@@@@@@@@@@@@@@@@@@o@@@@@@@@@@@@@@OO.@@o@@@",
"@@o@.OO@@@@@@@@@@@@@o@@@@@@@@@@@@@@@@@@@o@@@@@@@@@@@@@@OO.@@o@@@",
"@@o@.OO@@@@@@@@@@@@@o@@@@@@@@@@@@@@@@@@@o@@@@@@@@@@@@@@OO.@@o@@@",
"@@o@.OO@@@@@@@@@@@@@o@@@@@@@@@@@@@@@@@@@o@@@@@@@@@@@@@@OO.@@o@@@",
"@@o@.OO@@@@@@@@@@@@@o@@@@@@@@@@@@@@@@@@@o@@@@@@@@@@@@@@OO.@@o@@@",
"@oo@.OO@@@@@@@@@@@@@o@@@@@@@@@@@@@@@@@@@o@@@@@@@@@@@@@@OO.@@o@@@",
"@o@@.O@@@@@@@@@@@@@@o@@@@@@@@@@@@@@@@@@@o@@@@@@@@@@@@@@OO.@@oo@@",
"@o@X.oooooooo@@@@@@@o@@@@@@@@@@@@@@@@@@@o@@@@@@@@@@@@@@oo.X@oo@@",
"XXX@.OO@@@@@ooooooooooooooooooooooooooooooooooooooooooooO.@XXXXX",
"@o@@.OO@@@@@@@@@@@@@o@@@@@@@@@@@@@@@@@@@o@@@@@@@@@@@@@@OO.@@@o@@",
"@o@@.O@@@@@@@@@@@@@@o@@@@@@@@@@@@@@@@@@@o@@@@@@@@@@@@@@OO.@@@o@@",
"@o@@.O@@@@@@@@@@@@@@o@@@@@@@@@@@@@@@@@@@o@@@@@@@@@@@@@@OO.@@@o@@",
"@o@@.OO@@@@@@@@@@@@@o@@@@@@@@@@@@@@@@@@@o@@@@@@@@@@@@@OOO.@@@o@@",
"@o@@.OO@@@@@@@@@@@@@o@@@@@@@@@@@@@@@@@@@o@@@@@@@@@@@@@OOO.@@oo@@",
"@o@@.OO@@@@@@@@@@@@@o@@@@@@@@@@@@@@@@@@@o@@@@@@@@@@@@@OOO.@@o@@@",
"@@@@.OOO@@@@@@@@@@@@o@@@@@@@@@@@@@@@@@@@o@@@@@@@@@@@@@OOO.@@o@@@",
"@@@@.OOO@@@@@@@@@@@@o@@@@@@@@@@@@@@@@@@@o@@@@@@@@@@@@@OOO.@@o@@@",
"@@@@.OOO@@@@@@@@@@@@o@@@@@@@@@@@@@@@@@@@o@@@@@@@@@@@@@OOO.@@o@@@",
"@@@@.OOOO@@@@@@@@@@@o@@@@@@@@@@@@@@@@@@@o@@@@@@@@@@@@@OOO.@oo@@@",
"@@@@.OOOO@@@@@@@@@@@o@@@@@@@@@@@@@@@@@@@o@@@@@@@@@@@@@OOO.@oo@@@",
"@@@@.OOOO@@@@@@@@@@@o@@@@@@@@@@@@@@@@@@@o@@@@@@@@@@@@@OOO.@oo@@o",
"@@@@.OOOO@@@@@@@@@@@o@@@@@@@@@@@@@@@@@@@o@@@@@@@@@@@@OOOO.@o@@@o",
"@@@@.OOOOO@@@@@@@@@@o@@@@@@@@@@@@@@@@@@@o@@@@@@@@@@@@OOOO.@o@@@o",
"@@@@.OOOOO@@@@@@@@@@o@@@@@@@@@@@@@@@@@@@o@@@@@@@@@@@@OOOO.@o@@oo"
};
