/* XPM */
static char *result[] = {
/* columns rows colors chars-per-pixel */
"64 64 28 1 ",
"  c gray10",
". c #393C2C",
"X c #4A4C3B",
"o c #322947",
"O c #392F56",
"+ c #3A3865",
"@ c #473B78",
"# c #4B5070",
"$ c #93986C",
"% c #A3A97B",
"& c #49519B",
"* c #4B5BAB",
"= c #5C73B7",
"- c #AAB083",
"; c #BCBF95",
": c #D4D7B9",
"> c #D7DABB",
", c #D8DBBA",
"< c #DBDDBC",
"1 c #83A9D0",
"2 c #93BAE1",
"3 c #BCD6F0",
"4 c #EBEDD3",
"5 c #ECEED3",
"6 c #F2F3DC",
"7 c #D5E5F5",
"8 c #FFFFEB",
"9 c #E5F2FE",
/* pixels */
"4444%,,,,,4444444444:4444444444444444444:444444444444,,,,%4:4444",
"4444%,,,,44444444444:4444444444444444444:4444444444444,,,%4:4444",
"44:4%,,,,44444444444:4444444444444444444:44444444444444,,%4:4444",
"4::4%,,,,44444444444:4444444444444444444:44444444444444,,%4:4444",
"4::4%,,,,44444444444:4444444444444444444:44444444444444,,%4:4444",
"4::4%,,,444444444444:4444444444444444444:44444444444444,,%4:4444",
"4::4%,,,444444444444:4444444444444444444:44444444444444,,%4:4444",
"44:4%,,,444444444444:4444444444444444444:44444444444444,,%4:4444",
"44:4%,,,444444444444:4444444444444444444:44444444444444,,%4:4444",
"4444%,,,444444444444:4444444444444444444:4444444444444,,,%4:4444",
"4444%,,,444444444444:4444444444444444444:444444444444,,,,%4:4444",
"4444%,,,,44444444444:4444444444444444444:44444444444,,,,,%44:444",
"44:4%,,,,,4444444444:4444444444444444444:4444444444,,,,,,%4::444",
"$$$$$$$$$$$$$$$$$$$$$$$$$$$$$$$$$$$$$$$$$$$$$$$$$$$$$$$$$$$$$$$$",
"$$$$$$$$$$$$$$$$$$$$$$$$$$$$$$$$$$$$$$$$$$$$$$$$$$$$$$$$$$$$$$$$",
"$$$$$$$$$$$$$$$$$$$$$$$$$$$$$$$$$$$$$$$$$$$$$$$$$$$$$$$$$$$$$$$$",
"$$$$$$$$$$$$$$$$$$$$$$$$$$$$$$$$$$$$$$$$$$$$$$$$$$$$$$$$$$$$$$$$",
"4444%,4,   oooo@@@@@@@@@@@@@@@@@@@@@@@@@@@@@@ooooo    4,4%444444",
"4444%,,,  oooo@@@@@**********************@@@@@oooooo  ,,4%4:4444",
"4444%,,, ooo@@@@@@*********4**4**************@4@@@@oo ,,4%4:4444",
"4:44%,,,ooo@@@@@*****11111411411111111111****4***@@@oo,,,%4:4444",
"4:44%,,4oo@@@@****111111141141111111111111114******@@o,,,%4:4444",
"4:44%4,4o@@@@***11111111111422111111111111141*4****@@@,,,%4:4444",
"4:44%4,4@@@@***11111111222422222111111111141141*****@@,,,%4:4444",
"4:44%4,4@@@***11111122223437733222111111141141111***@@,4,%4:4444",
":444%4,4@@***111111234334778873333211111411411111***@@,4,%4:4444",
":444%4,,@***11111223433437888873333221141141111111***@,,,%4:4444",
":444%4,,@**111112234334378899997333221411411111111***@4,,%4:4444",
"::4;%4,,@**111143343343789999973333224114111111114**4@4,4%4::444",
"4:;4%44,@**111423433473379999733333241141111111141*4*@4,4%;::444",
";;44%44,@**1142343348873379777333334114111111114114**@,,4%4;;;;;",
"4:44%4,,@**1122337888873333333333342111111111141141**@,,4%4::444",
"4444%4,,@**1122378889997333333333432111111111411411**@,,4%4::444",
"4444%,,4@**1122337888997333333334321111111114114111**@,,4%4:4444",
"4444%,44@**1422333788773333333343211111111141141111**@,,4%4:4444",
"4444%,,4@**4111233737333333333422111111111411411111**@4,4%4:4444",
"4444%,,4@*4111123333333333333421111111111411411111***@4,4%4:4444",
"4:44%,,4@***11112223333333334214111111114114111111**@@4,4%444444",
"4:44%,,4@@**111111122222222421411111111411411111#+**@o4,4%44:444",
"4:44%,,4@@@**1111111222211411411111111411411111#=+*@@o4,4%44:444",
"4:44%,,,o@@***111111111111111111111111114111111#+*+@@o,,,%44:444",
"44:4%,,,oo@@***11111111111111111111111141111111+*O&Ooo,,,%44:444",
"44:4%4,, ooo@@*********1111111111111114111111***@Ooo  ,,,%44:444",
"44:4%44,   oo@@********************************@@ooo  ,,,%44:444",
"44:4%,,,   oo@@@@@@@@@@@@@@@@@@@@@@@@@@@@@@@@@@@ooo   ,,,%44:444",
"4::4$::::::::$$::::::::::$$::::::::::::::::$::::::::::6$$$44:444",
"4:44$$$$$$$$$$$$$$$$$$$$$$$$$$$$$$$$$$$$$$$$$$$$$$$$$$$$$$44::44",
"4:4;$$$$$$$$$$$$$$$$$$$$$$$$$$$$$$$$$$$$$$$$$$$$$$$$$$$$$$;4::44",
";;;4..................................................XXXX5;;;;;",
"4:44..............................................XXXX....444:44",
"4:44%,44444444444444:4444444444444444444:44444444454444,,%444:44",
"4:44%,44444444444444:4444444444444444444:44444444455444,,%444:44",
"4:44%,,4444444444444:4444444444444444444:4444444444544,,,%444:44",
"4:44%,,4444444444444:4444444444444444444:4444444444455,,,%44::44",
"4:44%,,4444444444444:4444444444444444444:4444444444445,,,%44:444",
"4444%,,,444444444444:4444444444444444444:4444444444454,,,%44:444",
"4444%,,,444444444444:4444444444444444444:4444444555544,,,%44:444",
"4444%,,,444444444444:4444444444444444444:4555555555555<<<-55>544",
"4444%,,,,44444444444:4444444444444444445>5554444444444,,,%4::444",
"4444%,,,,44444444444:4444444444444444444:4444444444444,,,%4::444",
"4444%,,,,44444444444:4444444444444444444:4444444444444,,,%4::44:",
"4444%,,,,44444444444:4444444444444444444:444444444444,,,,%4:444:",
"4444%,,,,,4444444444:4444444444444444444:444444444444,,,,%4:444:",
"4444%,,,,,4444444444:4444444444444444444:444444444444,,,,%4:44::"
};
