/* XPM */
static char *result[] = {
/* columns rows colors chars-per-pixel */
"64 64 34 1 ",
"  c gray10",
". c #393C2C",
"X c #282437",
"o c #4A4C3B",
"O c #292E46",
"+ c #322947",
"@ c #392F56",
"# c #3A3865",
"$ c #473B78",
"% c #3A4551",
"& c #4B5070",
"* c #6A6471",
"= c #93986C",
"- c #A3A97B",
"; c #BBDC46",
": c #49519B",
"> c #4B5BAB",
", c #5C73B7",
"< c #AAB083",
"1 c #BCBF95",
"2 c #D4D7B9",
"3 c #D7DABB",
"4 c #D8DBBA",
"5 c #DBDDBC",
"6 c #83A9D0",
"7 c #93BAE1",
"8 c #BCD6F0",
"9 c #C8C4C8",
"0 c #C9CED7",
"q c #EBEDD3",
"w c #ECEED3",
"e c #D5E5F5",
"r c #FFFFEB",
"t c #E5F2FE",
/* pixels */
"qqqq-44444qqqqqqqqqq2qqqqqqqqqqqqqqqqqqq2qqqqqqqqqqqq4444-q2qqqq",
"qqqq-4444qqqqqqqqqqq2qqqqqqqqqqqqqqqqqqq2qqqqqqqqqqqqq444-q2qqqq",
"qq2q-4444qqqqqqqqqqq2qqqqqqqqqqqqqqqqqqq2qqqqqqqqqqqqqq44-q2qqqq",
"q22q-4444qqqqqqqqqqq2qqqqqqqqqqqqqqqqqqq2qqqqqqqqqqqqqq44-q2qqqq",
"q22q-4444qqqqqqqqqqq2qqqqqqqqqqqqqqqqqqq2qqqqqqqqqqqqqq44-q2qqqq",
"q22q-444qqqqqqqqqqqq2qqqqqqqqqqqqqqqqqqq2qqqqqqqqqqqqqq44-q2qqqq",
"q22q-444qqqqqqqqqqqq2qqqqqqqqqqqqqqqqqqq2qqqqqqqqqqqqqq44-q2qqqq",
"qq2q-444qqqqqqqqqqqq2qqqqqqqqqqqqqqqqqqq2qqqqqqqqqqqqqq44-q2qqqq",
"qq2q-444qqqqqqqqqqqq2qqqqqqqqqqqqqqqqqqq2qqqqqqqqqqqqqq44-q2qqqq",
"qqqq-444qqqqqqqqqqqq2qqqqqqqqqqqqqqqqqqq2qqqqqqqqqqqqq444-q2qqqq",
"qqqq-444qqqqqqqqqqqq2qqqqqqqqqqqqqqqqqqq2qqqqqqqqqqqq4444-q2qqqq",
"qqqq-4444qqqqqqqqqqq2qqqqqqqqqqqqqqqqqqq2qqqqqqqqqqq44444-qq2qqq",
"qq2q-44444qqqqqqqqqq2qqqqqqqqqqqqqqqqqqq2qqqqqqqqqq444444-q22qqq",
"================================================================",
"================================================================",
"================================================================",
"================================================================",
"qqqq-4q4   ++++$$$$$$$$$$$$$$$$$$$$$$$$$$$$$$+++++    q4q-qqqqqq",
"qqqq-444  ++++$$$$$>>>>>>>>>>>>>>>>>>>>>>$$$$$++++++  44q-q2qqqq",
"qqqq-444 +++$$$$$$>>>>>>>>>q>>q>>>>>>>>>>>>>>$q$$$$++ 44q-q2qqqq",
"q2qq-444+++$$$$$>>>>>66666q66q66666666666>>>>q>>>$$$++444-q2qqqq",
"q2qq-44q++$$$$>>>>6666666q66q666666666666666q>>>>>>$$+444-q2qqqq",
"q2qq-q4q+$$$$>>>66666666666q776666666666666q6>q>>>>$$$444-q2qqqq",
"q2qq-q4q$$$$>>>66666666777q777776666666666q66q6>>>>>$$444-q2qqqq",
"q2qq-q4q$$$>>>66666677778q8ee887776666666q66q6666>>>$$4q4-q2qqqq",
"2qqq-q4q$$>>>66666678q88qeerre8888766666q66q66666>>>$$4q4-q2qqqq",
"2qqq-q44$>>>66666778q88q8errrre88887766q66q6666666>>>$444-q2qqqq",
"2qqq-q44$>>66666778q88q8errtttte888776q66q66666666>>>$q44-q2qqqq",
"22q1-q44$>>6666q88q88q8erttttte888877q66q66666666q>>q$q4q-q22qqq",
"q21q-qq4$>>666q78q88qe88etttte888887q66q66666666q6>q>$q4q-122qqq",
"11qq-qq4$>>66q78q88qrre88eteee88888q66q66666666q66q>>$44q-q11111",
"q2qq-q44$>>667788errrre88888888888q76666666666q66q6>>$44q-q22qqq",
"qqqq-q44$>>66778errrttte888888888q87666666666q66q66>>$44q-q22qqq",
"qqqq-44q$>>667788errrtte88888888q87666666666q66q666>>$44q-q2qqqq",
"qqqq-4qq$>>6q77888erree88888888q87666666666q&&q6666>>$44q-q2qqqq",
"qqqq-44q$>>q666788e8e888888888q77666666666q&,*66666>>$q4q-q2qqqq",
"qqqq-44q$>q666678888888888888q76666666666q6&*,&666>>>@q4q-q2qqqq",
"q2qq-44q$>>>6666777888888888q76q66666666q66*6&,&66>>@:q4q-qqqqqq",
"q2qq-44q$$>>666666677777777q76q66666666q66q66&,&6>>#:+q4q-qq2qqq",
"q2qq-44q$$$>>6666666777766q66q66666666q66q6666&;;##@:+q4q-qq2qqq",
"q2qq-444+$$>>>66666666666666666666666666q6666&,,>>>@@+444-qq2qqq",
"qq2q-444++$$>>>666666666666666666666666q6666&,%00X9$++444-qq2qqq",
"qq2q-q44 +++$$>>>>>>>>>666666666666666q6666&,0O09X++  444-qq2qqq",
"qq2q-qq4   ++$$>>>>>>>>>>>>>>>>>>>>>>>>>>>>#>0099+++  444-qq2qqq",
"qq2q-444   ++$$$$$$$$$$$$$$$$$$$$$$$$$$$$$$$$$$$+++   444-qq2qqq",
"q22q=22222222==2222222222==2222222222222222=22222222222===qq2qqq",
"q2qq======================================================qq22qq",
"q2q1======================================================1q22qq",
"111q..................................................oooow11111",
"q2qq..............................................oooo....qqq2qq",
"q2qq-4qqqqqqqqqqqqqq2qqqqqqqqqqqqqqqqqqq2qqqqqqqqqwqqqq44-qqq2qq",
"q2qq-4qqqqqqqqqqqqqq2qqqqqqqqqqqqqqqqqqq2qqqqqqqqqwwqqq44-qqq2qq",
"q2qq-44qqqqqqqqqqqqq2qqqqqqqqqqqqqqqqqqq2qqqqqqqqqqwqq444-qqq2qq",
"q2qq-44qqqqqqqqqqqqq2qqqqqqqqqqqqqqqqqqq2qqqqqqqqqqqww444-qq22qq",
"q2qq-44qqqqqqqqqqqqq2qqqqqqqqqqqqqqqqqqq2qqqqqqqqqqqqw444-qq2qqq",
"qqqq-444qqqqqqqqqqqq2qqqqqqqqqqqqqqqqqqq2qqqqqqqqqqqwq444-qq2qqq",
"qqqq-444qqqqqqqqqqqq2qqqqqqqqqqqqqqqqqqq2qqqqqqqwwwwqq444-qq2qqq",
"qqqq-444qqqqqqqqqqqq2qqqqqqqqqqqqqqqqqqq2qwwwwwwwwwwww555<ww3wqq",
"qqqq-4444qqqqqqqqqqq2qqqqqqqqqqqqqqqqqqw3wwwqqqqqqqqqq444-q22qqq",
"qqqq-4444qqqqqqqqqqq2qqqqqqqqqqqqqqqqqqq2qqqqqqqqqqqqq444-q22qqq",
"qqqq-4444qqqqqqqqqqq2qqqqqqqqqqqqqqqqqqq2qqqqqqqqqqqqq444-q22qq2",
"qqqq-4444qqqqqqqqqqq2qqqqqqqqqqqqqqqqqqq2qqqqqqqqqqqq4444-q2qqq2",
"qqqq-44444qqqqqqqqqq2qqqqqqqqqqqqqqqqqqq2qqqqqqqqqqqq4444-q2qqq2",
"qqqq-44444qqqqqqqqqq2qqqqqqqqqqqqqqqqqqq2qqqqqqqqqqqq4444-q2qq22"
};
