/* XPM */
static char *result[] = {
/* columns rows colors chars-per-pixel */
"64 64 30 1 ",
"  c gray10",
". c #393C2C",
"X c #4A4C3B",
"o c #322947",
"O c #3A3865",
"+ c #473B78",
"@ c #505D5D",
"# c #4B5070",
"$ c #4F5575",
"% c #5C5D7A",
"& c #93986C",
"* c #A3A97B",
"= c #BBDC46",
"- c #4B5BAB",
"; c #5C73B7",
": c #6178BC",
"> c #AAB083",
", c #BCBF95",
"< c #D4D7B9",
"1 c #D7DABB",
"2 c #D8DBBA",
"3 c #DBDDBC",
"4 c #83A9D0",
"5 c #93BAE1",
"6 c #BCD6F0",
"7 c #EBEDD3",
"8 c #ECEED3",
"9 c #D5E5F5",
"0 c #FFFFEB",
"q c #E5F2FE",
/* pixels */
"7777*222227777777777<7777777777777777777<7777777777772222*7<7777",
"7777*222277777777777<7777777777777777777<7777777777777222*7<7777",
"77<7*222277777777777<7777777777777777777<7777777777777722*7<7777",
"7<<7*222277777777777<7777777777777777777<7777777777777722*7<7777",
"7<<7*222277777777777<7777777777777777777<7777777777777722*7<7777",
"7<<7*222777777777777<7777777777777777777<7777777777777722*7<7777",
"7<<7*222777777777777<7777777777777777777<7777777777777722*7<7777",
"77<7*222777777777777<7777777777777777777<7777777777777722*7<7777",
"77<7*222777777777777<7777777777777777777<7777777777777722*7<7777",
"7777*222777777777777<7777777777777777777<7777777777777222*7<7777",
"7777*222777777777777<7777777777777777777<7777777777772222*7<7777",
"7777*222277777777777<7777777777777777777<7777777777722222*77<777",
"77<7*222227777777777<7777777777777777777<7777777777222222*7<<777",
"&&&&&&&&&&&&&&&&&&&&&&&&&&&&&&&&&&&&&&&&&&&&&&&&&&&&&&&&&&&&&&&&",
"&&&&&&&&&&&&&&&&&&&&&&&&&&&&&&&&&&&&&&&&&&&&&&&&&&&&&&&&&&&&&&&&",
"&&&&&&&&&&&&&&&&&&&&&&&&&&&&&&&&&&&&&&&&&&&&&&&&&&&&&&&&&&&&&&&&",
"&&&&&&&&&&&&&&&&&&&&&&&&&&&&&&&&&&&&&&&&&&&&&&&&&&&&&&&&&&&&&&&&",
"7777*272   oooo++++++++++++++++++++++++++++++ooooo    727*777777",
"7777*222  oooo+++++----------------------+++++oooooo  227*7<7777",
"7777*222 ooo++++++---------7--7--------------+7++++oo 227*7<7777",
"7<77*222ooo+++++-----44444744744444444444----7---+++oo222*7<7777",
"7<77*227oo++++----444444474474444444444444447------++o222*7<7777",
"7<77*727o++++---44444444444755444444444444474-7----+++222*7<7777",
"7<77*727++++---44444444555755555444444444474474-----++222*7<7777",
"7<77*727+++---44444455556769966555444444474474444---++272*7<7777",
"<777*727++---444444567667990096666544444744744444---++272*7<7777",
"<777*722+---44444556766769000096666554474474444444---+222*7<7777",
"<777*722+--4444455676676900qqqq9666554744744444444---+722*7<7777",
"<<7,*722+--44447667667690qqqqq96666557447444444447--7+727*7<<777",
"7<,7*772+--44475676679669qqqq966666574474444444474-7-+727*,<<777",
",,77*772+--447567667009669q999666667447444444447447--+227*7,,,,,",
"7<77*722+--4455669000096666666666675444444444474474--+227*7<<777",
"7777*722+--445569000qqq9666666666765444444444744744--+227*7<<777",
"7777*227+--4455669000qq9666666667654444444447447444--+227*7<7777",
"7777*277+--4755666900996666666676544444444474474444--+227*7<7777",
"7777*227+--7444566969666666666755444444444744744444--+727*7<7777",
"7777*227+-7444456666666666666754444444444744744444---+727*7<7777",
"7<77*227+---44445556666%%6667547444444447447444444--++727*777777",
"7<77*227++--4444444555$:$55754744#444447447444444---+o727*77<777",
"7<77*227+++--444444455$$;#744744#;#44474474444444--++o727*77<777",
"7<77*222o++---44444444#4#;#4444#;@#4444474444444---++o222*77<777",
"77<7*222oo++---444444444#;#444#;#4#444474444444--+++oo222*77<777",
"77<7*722 ooo++---------44#==###;#444447444444---++oo  222*77<777",
"77<7*772   oo++---------O-----OO---------------++ooo  222*77<777",
"77<7*222   oo+++++++++++++++++++++++++++++++++++ooo   222*77<777",
"7<<7&<<<<<<<<&&<<<<<<<<<<&&<<<<<<<<<<<<<<<<&<<<<<<<<<<<&&&77<777",
"7<77&&&&&&&&&&&&&&&&&&&&&&&&&&&&&&&&&&&&&&&&&&&&&&&&&&&&&&77<<77",
"7<7,&&&&&&&&&&&&&&&&&&&&&&&&&&&&&&&&&&&&&&&&&&&&&&&&&&&&&&,7<<77",
",,,7..................................................XXXX8,,,,,",
"7<77..............................................XXXX....777<77",
"7<77*277777777777777<7777777777777777777<7777777778777722*777<77",
"7<77*277777777777777<7777777777777777777<7777777778877722*777<77",
"7<77*227777777777777<7777777777777777777<7777777777877222*777<77",
"7<77*227777777777777<7777777777777777777<7777777777788222*77<<77",
"7<77*227777777777777<7777777777777777777<7777777777778222*77<777",
"7777*222777777777777<7777777777777777777<7777777777787222*77<777",
"7777*222777777777777<7777777777777777777<7777777888877222*77<777",
"7777*222777777777777<7777777777777777777<7888888888888333>881877",
"7777*222277777777777<777777777777777777818887777777777222*7<<777",
"7777*222277777777777<7777777777777777777<7777777777777222*7<<777",
"7777*222277777777777<7777777777777777777<7777777777777222*7<<77<",
"7777*222277777777777<7777777777777777777<7777777777772222*7<777<",
"7777*222227777777777<7777777777777777777<7777777777772222*7<777<",
"7777*222227777777777<7777777777777777777<7777777777772222*7<77<<"
};
