/* XPM */
static char *_32d8a0c0a0a4affa3602682a3292256PO9EoX6hVYZ0L3rj[] = {
/* columns rows colors chars-per-pixel */
"64 64 17 1 ",
"  c gray10",
". c #393C2C",
"X c #322947",
"o c #473B78",
"O c #93986C",
"+ c #A3A97B",
"@ c #4B5BAB",
"# c #BCBF95",
"$ c #D4D7B9",
"% c #D8DBBA",
"& c #83A9D0",
"* c #93BAE1",
"= c #BCD6F0",
"- c #EBEDD3",
"; c #D5E5F5",
": c #FFFFEB",
"> c #E5F2FE",
/* pixels */
"----+%%%%%----------$-------------------$------------%%%%+-$----",
"----+%%%%-----------$-------------------$-------------%%%+-$----",
"--$-+%%%%-----------$-------------------$--------------%%+-$----",
"-$$-+%%%%-----------$-------------------$--------------%%+-$----",
"-$$-+%%%%-----------$-------------------$--------------%%+-$----",
"-$$-+%%%------------$-------------------$--------------%%+-$----",
"-$$-+%%%------------$-------------------$--------------%%+-$----",
"--$-+%%%------------$-------------------$--------------%%+-$----",
"--$-+%%%------------$-------------------$--------------%%+-$----",
"----+%%%------------$-------------------$-------------%%%+-$----",
"----+%%%------------$-------------------$------------%%%%+-$----",
"----+%%%%-----------$-------------------$-----------%%%%%+--$---",
"--$-+%%%%%----------$-------------------$----------%%%%%%+-$$---",
"OOOOOOOOOOOOOOOOOOOOOOOOOOOOOOOOOOOOOOOOOOOOOOOOOOOOOOOOOOOOOOOO",
"OOOOOOOOOOOOOOOOOOOOOOOOOOOOOOOOOOOOOOOOOOOOOOOOOOOOOOOOOOOOOOOO",
"OOOOOOOOOOOOOOOOOOOOOOOOOOOOOOOOOOOOOOOOOOOOOOOOOOOOOOOOOOOOOOOO",
"OOOOOOOOOOOOOOOOOOOOOOOOOOOOOOOOOOOOOOOOOOOOOOOOOOOOOOOOOOOOOOOO",
"----+%-%   XXXXooooooooooooooooooooooooooooooXXXXX    -%-+------",
"----+%%%  XXXXooooo@@@@@@@@@@@@@@@@@@@@@@oooooXXXXXX  %%-+-$----",
"----+%%% XXXoooooo@@@@@@@@@-@@-@@@@@@@@@@@@@@o-ooooXX %%-+-$----",
"-$--+%%%XXXooooo@@@@@&&&&&-&&-&&&&&&&&&&&@@@@-@@@oooXX%%%+-$----",
"-$--+%%-XXoooo@@@@&&&&&&&-&&-&&&&&&&&&&&&&&&-@@@@@@ooX%%%+-$----",
"-$--+-%-Xoooo@@@&&&&&&&&&&&-**&&&&&&&&&&&&&-&@-@@@@ooo%%%+-$----",
"-$--+-%-oooo@@@&&&&&&&&***-*****&&&&&&&&&&-&&-&@@@@@oo%%%+-$----",
"-$--+-%-ooo@@@&&&&&&****=-=;;==***&&&&&&&-&&-&&&&@@@oo%-%+-$----",
"$---+-%-oo@@@&&&&&&*=-==-;;::;====*&&&&&-&&-&&&&&@@@oo%-%+-$----",
"$---+-%%o@@@&&&&&**=-==-=;::::;====**&&-&&-&&&&&&&@@@o%%%+-$----",
"$---+-%%o@@&&&&&**=-==-=;::>>>>;===**&-&&-&&&&&&&&@@@o-%%+-$----",
"$$-#+-%%o@@&&&&-==-==-=;:>>>>>;====**-&&-&&&&&&&&-@@-o-%-+-$$---",
"-$#-+--%o@@&&&-*=-==-;==;>>>>;=====*-&&-&&&&&&&&-&@-@o-%-+#$$---",
"##--+--%o@@&&-*=-==-::;==;>;;;=====-&&-&&&&&&&&-&&-@@o%%-+-#####",
"-$--+-%%o@@&&**==;::::;===========-*&&&&&&&&&&-&&-&@@o%%-+-$$---",
"----+-%%o@@&&**=;:::>>>;=========-=*&&&&&&&&&-&&-&&@@o%%-+-$$---",
"----+%%-o@@&&**==;:::>>;========-=*&&&&&&&&&-&&-&&&@@o%%-+-$----",
"----+%--o@@&-**===;::;;========-=*&&&&&&&&&-&&-&&&&@@o%%-+-$----",
"----+%%-o@@-&&&*==;=;=========-**&&&&&&&&&-&&-&&&&&@@o-%-+-$----",
"----+%%-o@-&&&&*=============-*&&&&&&&&&&-&&-&&&&&@@@o-%-+-$----",
"-$--+%%-o@@@&&&&***=========-*&-&&&&&&&&-&&-&&&&&&@@oo-%-+------",
"-$--+%%-oo@@&&&&&&&********-*&-&&&&&&&&-&&-&&&&&&@@@oX-%-+--$---",
"-$--+%%-ooo@@&&&&&&&****&&-&&-&&&&&&&&-&&-&&&&&&&@@ooX-%-+--$---",
"-$--+%%%Xoo@@@&&&&&&&&&&&&&&&&&&&&&&&&&&-&&&&&&&@@@ooX%%%+--$---",
"--$-+%%%XXoo@@@&&&&&&&&&&&&&&&&&&&&&&&&-&&&&&&&@@oooXX%%%+--$---",
"--$-+-%% XXXoo@@@@@@@@@&&&&&&&&&&&&&&&-&&&&&&@@@ooXX  %%%+--$---",
"--$-+--%   XXoo@@@@@@@@@@@@@@@@@@@@@@@@@@@@@@@@ooXXX  %%%+--$---",
"--$-+%%%   XXoooooooooooooooooooooooooooooooooooXXX   %%%+--$---",
"-$$-O$$$$$$$$OO$$$$$$$$$$OO$$$$$$$$$$$$$$$$O$$$$$$$$$$$OOO--$---",
"-$--OOOOOOOOOOOOOOOOOOOOOOOOOOOOOOOOOOOOOOOOOOOOOOOOOOOOOO--$$--",
"-$-#OOOOOOOOOOOOOOOOOOOOOOOOOOOOOOOOOOOOOOOOOOOOOOOOOOOOOO#-$$--",
"###-......................................................-#####",
"-$--......................................................---$--",
"-$--+%--------------$-------------------$--------------%%+---$--",
"-$--+%--------------$-------------------$--------------%%+---$--",
"-$--+%%-------------$-------------------$-------------%%%+---$--",
"-$--+%%-------------$-------------------$-------------%%%+--$$--",
"-$--+%%-------------$-------------------$-------------%%%+--$---",
"----+%%%------------$-------------------$-------------%%%+--$---",
"----+%%%------------$-------------------$-------------%%%+--$---",
"----+%%%------------$-------------------$-------------%%%+--$---",
"----+%%%%-----------$-------------------$-------------%%%+-$$---",
"----+%%%%-----------$-------------------$-------------%%%+-$$---",
"----+%%%%-----------$-------------------$-------------%%%+-$$--$",
"----+%%%%-----------$-------------------$------------%%%%+-$---$",
"----+%%%%%----------$-------------------$------------%%%%+-$---$",
"----+%%%%%----------$-------------------$------------%%%%+-$--$$"
};
