/* XPM */
static char *result[] = {
/* columns rows colors chars-per-pixel */
"64 64 38 1 ",
"  c gray10",
". c #393C2C",
"X c #4A4C3B",
"o c #322947",
"O c #3A3865",
"+ c #473B78",
"@ c #3A4551",
"# c #505D5D",
"$ c #4B5070",
"% c #4F5575",
"& c #5C5D7A",
"* c #6A6471",
"= c #93986C",
"- c #A3A97B",
"; c #BBDC46",
": c #DBF047",
"> c #4B5BAB",
", c #5C73B7",
"< c #6178BC",
"1 c #7B87B7",
"2 c #6D80C0",
"3 c #708EC3",
"4 c #AAB083",
"5 c #BCBF95",
"6 c #D4D7B9",
"7 c #D7DABB",
"8 c #D8DBBA",
"9 c #DBDDBC",
"0 c #83A9D0",
"q c #93BAE1",
"w c #BCD6F0",
"e c #C9CED7",
"r c #EBEDD3",
"t c #ECEED3",
"y c #DAE5E2",
"u c #D5E5F5",
"i c #FFFFEB",
"p c #E5F2FE",
/* pixels */
"rrrr-88888rrrrrrrrrr6rrrrrrrrrrrrrrrrrrr6rrrrrrrrrrrr8888-r6rrrr",
"rrrr-8888rrrrrrrrrrr6rrrrrrrrrrrrrrrrrrr6rrrrrrrrrrrrr888-r6rrrr",
"rr6r-8888rrrrrrrrrrr6rrrrrrrrrrrrrrrrrrr6rrrrrrrrrrrrrr88-r6rrrr",
"r66r-8888rrrrrrrrrrr6rrrrrrrrrrrrrrrrrrr6rrrrrrrrrrrrrr88-r6rrrr",
"r66r-8888rrrrrrrrrrr6rrrrrrrrrrrrrrrrrrr6rrrrrrrrrrrrrr88-r6rrrr",
"r66r-888rrrrrrrrrrrr6rrrrrrrrrrrrrrrrrrr6rrrrrrrrrrrrrr88-r6rrrr",
"r66r-888rrrrrrrrrrrr6rrrrrrrrrrrrrrrrrrr6rrrrrrrrrrrrrr88-r6rrrr",
"rr6r-888rrrrrrrrrrrr6rrrrrrrrrrrrrrrrrrr6rrrrrrrrrrrrrr88-r6rrrr",
"rr6r-888rrrrrrrrrrrr6rrrrrrrrrrrrrrrrrrr6rrrrrrrrrrrrrr88-r6rrrr",
"rrrr-888rrrrrrrrrrrr6rrrrrrrrrrrrrrrrrrr6rrrrrrrrrrrrr888-r6rrrr",
"rrrr-888rrrrrrrrrrrr6rrrrrrrrrrrrrrrrrrr6rrrrrrrrrrrr8888-r6rrrr",
"rrrr-8888rrrrrrrrrrr6rrrrrrrrrrrrrrrrrrr6rrrrrrrrrrr88888-rr6rrr",
"rr6r-88888rrrrrrrrrr6rrrrrrrrrrrrrrrrrrr6rrrrrrrrrr888888-r66rrr",
"================================================================",
"================================================================",
"================================================================",
"================================================================",
"rrrr-8r8   oooo++++++++++++++++++++++++++++++ooooo    r8r-rrrrrr",
"rrrr-888  oooo+++++>>>>>>>>>>>>>>>>>>>>>>+++++oooooo  88r-r6rrrr",
"rrrr-888 ooo++++++>>>>>>>>>r>>r>>>>>>>>>>>>>>+r++++oo 88r-r6rrrr",
"r6rr-888ooo+++++>>>>>00000r00r00000000000>>>>r>>>+++oo888-r6rrrr",
"r6rr-88roo++++>>>>0000000r00r000000000000000r>>>>>>++o888-r6rrrr",
"r6rr-r8ro++++>>>00000000000rqq0000000000000r0>r>>>>+++888-r6rrrr",
"r6rr-r8r++++>>>00000000qqqrqqqqq0000000000r00r0>>>>>++888-r6rrrr",
"r6rr-r8r+++>>>000000qqqqwrwuuwwqqq0000000r00r0000>>>++8r8-r6rrrr",
"6rrr-r8r++>>>000000qwrwwruuiiuwwwwq00000r00r00000>>>++8r8-r6rrrr",
"6rrr-r88+>>>00000qqwrwwrwuiiiiuwwwwqq00r00r0000000>>>+888-r6rrrr",
"6rrr-r88+>>00000qqwrwwrwuiippppuwwwqq0r00r00000000>>>+r88-r6rrrr",
"66r5-r88+>>0000rwwrwwrwuipppppuwwwwqqr00r00000000r>>r+r8r-r66rrr",
"r65r-rr8+>>000rqwrwwruwwuppppuwwwwwqr00r00000000r0>r>+r8r-566rrr",
"55rr-rr8+>>00rqwrwwriiuwwupuuuwwwwwr00r00000000r00r>>+88r-r55555",
"r6rr-r88+>>00qqwwuiiiiuwwwwwwwwwwwrq0000000000r00r0>>+88r-r66rrr",
"rrrr-r88+>>00qqwuiiipppuwwwwwwwwwrwq000000000r00r00>>+88r-r66rrr",
"rrrr-88r+>>00qqwwuiiippuwwwwwwwwrwq000000000r00r000>>+88r-r6rrrr",
"rrrr-8rr+>>0rqqwwwuiiuuwww&&wwwrwq000000000r00r0000>>+88r-r6rrrr",
"rrrr-88r+>>r000qwwuwuwwww&2&wwrqq000$00000r00r00000>>+r8r-r6rrrr",
"rrrr-88r+>r0000qwwwwwwwww&&2&rq0000$,$000r00r00000>>>+r8r-r6rrrr",
"r6rr-88r+>>>0000qqqwwwwww&w&1%0r00$,#$00r00r000000>>++r8r-rrrrrr",
"r6rr-88r++>>0000000qqqqqqqq*<$r00$,$0$0r00r000000>>>+or8r-rr6rrr",
"r6rr-88r+++>>0000000qqqq00r0$:;$$$,$00r00r0000000>>++or8r-rr6rrr",
"r6rr-888o++>>>0000000000000$,,,,,$$00000r0000000>>>++o888-rr6rrr",
"rr6r-888oo++>>>00000000000$,@yy@y3$0000r0000000>>+++oo888-rr6rrr",
"rr6r-r88 ooo++>>>>>>>>>00$,y@yy@yy3$00r000000>>>++oo  888-rr6rrr",
"rr6r-rr8   oo++>>>>>>>>>>O>eeeeeee>O>>>>>>>>>>>++ooo  888-rr6rrr",
"rr6r-888   oo+++++++++++++++++++++++++++++++++++ooo   888-rr6rrr",
"r66r=66666666==6666666666==6666666666666666=66666666666===rr6rrr",
"r6rr======================================================rr66rr",
"r6r5======================================================5r66rr",
"555r..................................................XXXXt55555",
"r6rr..............................................XXXX....rrr6rr",
"r6rr-8rrrrrrrrrrrrrr6rrrrrrrrrrrrrrrrrrr6rrrrrrrrrtrrrr88-rrr6rr",
"r6rr-8rrrrrrrrrrrrrr6rrrrrrrrrrrrrrrrrrr6rrrrrrrrrttrrr88-rrr6rr",
"r6rr-88rrrrrrrrrrrrr6rrrrrrrrrrrrrrrrrrr6rrrrrrrrrrtrr888-rrr6rr",
"r6rr-88rrrrrrrrrrrrr6rrrrrrrrrrrrrrrrrrr6rrrrrrrrrrrtt888-rr66rr",
"r6rr-88rrrrrrrrrrrrr6rrrrrrrrrrrrrrrrrrr6rrrrrrrrrrrrt888-rr6rrr",
"rrrr-888rrrrrrrrrrrr6rrrrrrrrrrrrrrrrrrr6rrrrrrrrrrrtr888-rr6rrr",
"rrrr-888rrrrrrrrrrrr6rrrrrrrrrrrrrrrrrrr6rrrrrrrttttrr888-rr6rrr",
"rrrr-888rrrrrrrrrrrr6rrrrrrrrrrrrrrrrrrr6rtttttttttttt9994tt7trr",
"rrrr-8888rrrrrrrrrrr6rrrrrrrrrrrrrrrrrrt7tttrrrrrrrrrr888-r66rrr",
"rrrr-8888rrrrrrrrrrr6rrrrrrrrrrrrrrrrrrr6rrrrrrrrrrrrr888-r66rrr",
"rrrr-8888rrrrrrrrrrr6rrrrrrrrrrrrrrrrrrr6rrrrrrrrrrrrr888-r66rr6",
"rrrr-8888rrrrrrrrrrr6rrrrrrrrrrrrrrrrrrr6rrrrrrrrrrrr8888-r6rrr6",
"rrrr-88888rrrrrrrrrr6rrrrrrrrrrrrrrrrrrr6rrrrrrrrrrrr8888-r6rrr6",
"rrrr-88888rrrrrrrrrr6rrrrrrrrrrrrrrrrrrr6rrrrrrrrrrrr8888-r6rr66"
};
